(G-CODE GENERATED BY FLATCAM v8.994 - www.flatcam.org - Version Date: 2020/11/7)

(Name: breadboard_buttons-F_Cu.gbr_iso_combined_cnc)
(Type: G-code from Geometry)
(Units: MM)

(Created on Sunday, 14 August 2022 at 14:10)

(This preprocessor is the default preprocessor used by FlatCAM.)
(It is made to work with MACH3 compatible motion controllers.)

(TOOL DIAMETER: 0.39 mm)
(Feedrate_XY: 150.0 mm/min)
(Feedrate_Z: 60.0 mm/min)
(Feedrate rapids 1500.0 mm/min)

(Z_Cut: -0.045 mm)
(Z_Move: 1.0 mm)
(Z Start: None mm)
(Z End: 10.0 mm)
(X,Y End: 0.0000, 0.0000 mm)
(Steps per circle: 64)
(Preprocessor Geometry: mattwach)

(X range:    0.7600 ...   19.5600  mm)
(Y range:  -19.4100 ...   -0.9100  mm)

(Spindle Speed: 10000.0 RPM)
G21
G90
G94

G01 F150.00
(mattwach: Tool change disabled)
M03 S10000.0
G01 F150.00
G00 X1.7696 Y-7.4902
G01 F60.00
G01 Z-0.0450
G01 F150.00
G01 X1.7830 Y-7.4955
G01 X1.8383 Y-7.5151
G01 X1.9044 Y-7.5316
G01 X1.9719 Y-7.5417
G01 X2.0304 Y-7.5448
G01 X3.0496 Y-7.5448
G01 X3.1081 Y-7.5417
G01 X3.1662 Y-7.5333
G01 X3.1849 Y-7.5295
G01 X3.2417 Y-7.5151
G01 X3.3060 Y-7.4921
G01 X3.3591 Y-7.4672
G01 X3.3759 Y-7.4582
G01 X3.4180 Y-7.4330
G01 X3.4301 Y-7.4252
G01 X3.4809 Y-7.3872
G01 X3.5314 Y-7.3414
G01 X3.5772 Y-7.2909
G01 X3.6179 Y-7.2361
G01 X3.6529 Y-7.1776
G01 X3.6821 Y-7.1160
G01 X3.7051 Y-7.0517
G01 X3.7207 Y-6.9903
G01 X3.7233 Y-6.9762
G01 X3.7317 Y-6.9181
G01 X3.7349 Y-6.8548
G01 X3.7350 Y-6.1382
G01 X6.2882 Y-3.5850
G01 X7.2096 Y-3.5848
G01 X7.2239 Y-3.5835
G01 X7.2427 Y-3.5803
G01 X7.2612 Y-3.5752
G01 X7.2790 Y-3.5683
G01 X7.2961 Y-3.5597
G01 X7.3123 Y-3.5494
G01 X7.3274 Y-3.5377
G01 X7.3412 Y-3.5245
G01 X7.3537 Y-3.5100
G01 X7.3621 Y-3.4983
G01 X7.3720 Y-3.4819
G01 X7.3802 Y-3.4646
G01 X7.3866 Y-3.4466
G01 X7.3903 Y-3.4327
G01 X7.3935 Y-3.4139
G01 X7.3949 Y-3.3948
G01 X7.3950 Y-1.6900
G01 X7.3941 Y-1.6709
G01 X7.3913 Y-1.6520
G01 X7.3866 Y-1.6334
G01 X7.3802 Y-1.6154
G01 X7.3763 Y-1.6066
G01 X7.3697 Y-1.5939
G01 X7.3594 Y-1.5777
G01 X7.3477 Y-1.5626
G01 X7.3345 Y-1.5488
G01 X7.3200 Y-1.5363
G01 X7.3083 Y-1.5279
G01 X7.2919 Y-1.5180
G01 X7.2746 Y-1.5098
G01 X7.2566 Y-1.5034
G01 X7.2380 Y-1.4987
G01 X7.2191 Y-1.4959
G01 X7.2000 Y-1.4950
G01 X5.4952 Y-1.4951
G01 X5.4809 Y-1.4959
G01 X5.4667 Y-1.4979
G01 X5.4526 Y-1.5008
G01 X5.4434 Y-1.5034
G01 X5.4298 Y-1.5081
G01 X5.4166 Y-1.5137
G01 X5.4039 Y-1.5203
G01 X5.3917 Y-1.5279
G01 X5.3800 Y-1.5363
G01 X5.3726 Y-1.5423
G01 X5.3655 Y-1.5488
G01 X5.3555 Y-1.5590
G01 X5.3434 Y-1.5738
G01 X5.3379 Y-1.5817
G01 X5.3303 Y-1.5939
G01 X5.3237 Y-1.6066
G01 X5.3198 Y-1.6154
G01 X5.3134 Y-1.6334
G01 X5.3108 Y-1.6426
G01 X5.3079 Y-1.6567
G01 X5.3055 Y-1.6757
G01 X5.3050 Y-1.6900
G01 X5.3050 Y-2.6018
G01 X2.7518 Y-5.1550
G01 X2.0352 Y-5.1551
G01 X1.9719 Y-5.1583
G01 X1.9091 Y-5.1675
G01 X1.8951 Y-5.1705
G01 X1.8475 Y-5.1824
G01 X1.8292 Y-5.1879
G01 X1.7740 Y-5.2079
G01 X1.7124 Y-5.2371
G01 X1.6539 Y-5.2721
G01 X1.6066 Y-5.3069
G01 X1.5918 Y-5.3190
G01 X1.5555 Y-5.3520
G01 X1.5452 Y-5.3620
G01 X1.5028 Y-5.4091
G01 X1.4676 Y-5.4561
G01 X1.4595 Y-5.4679
G01 X1.4318 Y-5.5141
G01 X1.4228 Y-5.5309
G01 X1.3979 Y-5.5840
G01 X1.3749 Y-5.6483
G01 X1.3584 Y-5.7144
G01 X1.3489 Y-5.7771
G01 X1.3476 Y-5.7914
G01 X1.3450 Y-5.8500
G01 X1.3450 Y-6.8500
G01 X1.3483 Y-6.9181
G01 X1.3567 Y-6.9762
G01 X1.3605 Y-6.9949
G01 X1.3749 Y-7.0517
G01 X1.3945 Y-7.1070
G01 X1.4018 Y-7.1247
G01 X1.4271 Y-7.1776
G01 X1.4570 Y-7.2280
G01 X1.4676 Y-7.2439
G01 X1.5028 Y-7.2909
G01 X1.5420 Y-7.3345
G01 X1.5555 Y-7.3480
G01 X1.5991 Y-7.3872
G01 X1.6461 Y-7.4224
G01 X1.6620 Y-7.4330
G01 X1.7124 Y-7.4629
G01 X1.7696 Y-7.4902
G00 Z1.0000
G00 X6.9096 Y-7.4902
G01 F60.00
G01 Z-0.0450
G01 F150.00
G01 X6.9230 Y-7.4955
G01 X6.9783 Y-7.5151
G01 X7.0444 Y-7.5316
G01 X7.1119 Y-7.5417
G01 X7.1704 Y-7.5448
G01 X8.1800 Y-7.5450
G01 X8.2386 Y-7.5424
G01 X8.2529 Y-7.5411
G01 X8.3062 Y-7.5333
G01 X8.3249 Y-7.5295
G01 X8.3817 Y-7.5151
G01 X8.4460 Y-7.4921
G01 X8.4991 Y-7.4672
G01 X8.5159 Y-7.4582
G01 X8.5661 Y-7.4279
G01 X8.6172 Y-7.3902
G01 X8.6282 Y-7.3810
G01 X8.6714 Y-7.3414
G01 X8.7110 Y-7.2982
G01 X8.7231 Y-7.2834
G01 X8.7552 Y-7.2401
G01 X8.7630 Y-7.2280
G01 X8.7929 Y-7.1776
G01 X8.8221 Y-7.1160
G01 X8.8451 Y-7.0517
G01 X8.8616 Y-6.9856
G01 X8.8717 Y-6.9181
G01 X8.8749 Y-6.8548
G01 X8.8750 Y-6.1382
G01 X9.3816 Y-5.6316
G01 X9.4212 Y-5.5883
G01 X9.4333 Y-5.5735
G01 X9.4654 Y-5.5302
G01 X9.4732 Y-5.5182
G01 X9.5032 Y-5.4677
G01 X9.5323 Y-5.4061
G01 X9.5553 Y-5.3418
G01 X9.5719 Y-5.2756
G01 X9.5819 Y-5.2081
G01 X9.5852 Y-5.1448
G01 X9.5853 Y-3.3188
G01 X9.6220 Y-3.2855
G01 X9.6323 Y-3.2755
G01 X9.6947 Y-3.2066
G01 X9.7037 Y-3.1954
G01 X9.7562 Y-3.1245
G01 X9.7640 Y-3.1125
G01 X9.8116 Y-3.0326
G01 X9.8516 Y-2.9487
G01 X9.8572 Y-2.9355
G01 X9.8870 Y-2.8524
G01 X9.8926 Y-2.8341
G01 X9.9149 Y-2.7439
G01 X9.9288 Y-2.6519
G01 X9.9307 Y-2.6329
G01 X9.9350 Y-2.5400
G01 X9.9304 Y-2.4423
G01 X9.9288 Y-2.4281
G01 X9.9166 Y-2.3456
G01 X9.9128 Y-2.3268
G01 X9.8900 Y-2.2367
G01 X9.8589 Y-2.1490
G01 X9.8516 Y-2.1313
G01 X9.8116 Y-2.0474
G01 X9.7640 Y-1.9675
G01 X9.7534 Y-1.9516
G01 X9.6978 Y-1.8771
G01 X9.6355 Y-1.8080
G01 X9.6220 Y-1.7945
G01 X9.5529 Y-1.7322
G01 X9.4784 Y-1.6766
G01 X9.4625 Y-1.6660
G01 X9.3826 Y-1.6184
G01 X9.2899 Y-1.5745
G01 X9.1933 Y-1.5400
G01 X9.0939 Y-1.5151
G01 X8.9924 Y-1.5000
G01 X8.8900 Y-1.4950
G01 X8.7876 Y-1.5000
G01 X8.6861 Y-1.5151
G01 X8.5867 Y-1.5400
G01 X8.4990 Y-1.5711
G01 X8.4813 Y-1.5784
G01 X8.3974 Y-1.6184
G01 X8.3175 Y-1.6660
G01 X8.3016 Y-1.6766
G01 X8.2271 Y-1.7322
G01 X8.1580 Y-1.7945
G01 X8.1445 Y-1.8080
G01 X8.0885 Y-1.8698
G01 X8.0763 Y-1.8846
G01 X8.0211 Y-1.9594
G01 X7.9684 Y-2.0474
G01 X7.9245 Y-2.1401
G01 X7.8914 Y-2.2321
G01 X7.8874 Y-2.2459
G01 X7.8672 Y-2.3268
G01 X7.8634 Y-2.3456
G01 X7.8500 Y-2.4376
G01 X7.8450 Y-2.5400
G01 X7.8493 Y-2.6329
G01 X7.8512 Y-2.6519
G01 X7.8651 Y-2.7439
G01 X7.8887 Y-2.8388
G01 X7.8930 Y-2.8524
G01 X7.9211 Y-2.9310
G01 X7.9284 Y-2.9487
G01 X7.9684 Y-3.0326
G01 X8.0185 Y-3.1166
G01 X8.0266 Y-3.1284
G01 X8.0763 Y-3.1954
G01 X8.0853 Y-3.2066
G01 X8.1477 Y-3.2755
G01 X8.1580 Y-3.2855
G01 X8.1947 Y-3.3188
G01 X8.1947 Y-4.8520
G01 X7.8918 Y-5.1550
G01 X7.1800 Y-5.1550
G01 X7.1214 Y-5.1576
G01 X7.1071 Y-5.1589
G01 X7.0538 Y-5.1667
G01 X7.0351 Y-5.1705
G01 X6.9783 Y-5.1849
G01 X6.9230 Y-5.2045
G01 X6.9096 Y-5.2098
G01 X6.8524 Y-5.2371
G01 X6.7939 Y-5.2721
G01 X6.7391 Y-5.3128
G01 X6.6886 Y-5.3586
G01 X6.6428 Y-5.4091
G01 X6.6021 Y-5.4639
G01 X6.5671 Y-5.5224
G01 X6.5379 Y-5.5840
G01 X6.5149 Y-5.6483
G01 X6.4984 Y-5.7144
G01 X6.4883 Y-5.7819
G01 X6.4851 Y-5.8452
G01 X6.4850 Y-6.8500
G01 X6.4883 Y-6.9181
G01 X6.4984 Y-6.9856
G01 X6.5149 Y-7.0517
G01 X6.5345 Y-7.1070
G01 X6.5418 Y-7.1247
G01 X6.5671 Y-7.1776
G01 X6.5970 Y-7.2280
G01 X6.6076 Y-7.2439
G01 X6.6428 Y-7.2909
G01 X6.6886 Y-7.3414
G01 X6.7318 Y-7.3810
G01 X6.7466 Y-7.3931
G01 X6.7939 Y-7.4279
G01 X6.8441 Y-7.4582
G01 X6.8609 Y-7.4672
G01 X6.9096 Y-7.4902
G00 Z1.0000
G00 X10.3961 Y-3.3885
G01 F60.00
G01 Z-0.0450
G01 F150.00
G01 X10.4117 Y-3.4066
G01 X10.4423 Y-3.4403
G01 X10.4424 Y-5.0920
G01 X10.4452 Y-5.1530
G01 X10.4470 Y-5.1768
G01 X10.4499 Y-5.2006
G01 X10.4571 Y-5.2491
G01 X10.4612 Y-5.2727
G01 X10.4665 Y-5.2960
G01 X10.4814 Y-5.3552
G01 X10.4884 Y-5.3781
G01 X10.5088 Y-5.4357
G01 X10.5174 Y-5.4580
G01 X10.5271 Y-5.4799
G01 X10.5481 Y-5.5242
G01 X10.5589 Y-5.5456
G01 X10.5707 Y-5.5664
G01 X10.5959 Y-5.6085
G01 X10.6087 Y-5.6288
G01 X10.6225 Y-5.6483
G01 X10.6517 Y-5.6878
G01 X10.6665 Y-5.7066
G01 X10.6821 Y-5.7247
G01 X10.7151 Y-5.7611
G01 X10.7316 Y-5.7784
G01 X11.2125 Y-6.2594
G01 X11.2125 Y-6.8500
G01 X11.2131 Y-6.8739
G01 X11.2155 Y-6.9229
G01 X11.2173 Y-6.9468
G01 X11.2186 Y-6.9587
G01 X11.2274 Y-7.0191
G01 X11.2315 Y-7.0427
G01 X11.2367 Y-7.0660
G01 X11.2486 Y-7.1136
G01 X11.2550 Y-7.1367
G01 X11.2625 Y-7.1594
G01 X11.2791 Y-7.2056
G01 X11.2877 Y-7.2279
G01 X11.2974 Y-7.2498
G01 X11.3183 Y-7.2941
G01 X11.3236 Y-7.3049
G01 X11.3349 Y-7.3260
G01 X11.3661 Y-7.3784
G01 X11.3789 Y-7.3986
G01 X11.3927 Y-7.4182
G01 X11.4292 Y-7.4671
G01 X11.4444 Y-7.4856
G01 X11.4852 Y-7.5309
G01 X11.5017 Y-7.5483
G01 X11.5191 Y-7.5648
G01 X11.5554 Y-7.5977
G01 X11.5735 Y-7.6133
G01 X11.5924 Y-7.6281
G01 X11.6318 Y-7.6573
G01 X11.6514 Y-7.6711
G01 X11.6716 Y-7.6839
G01 X11.7137 Y-7.7091
G01 X11.7345 Y-7.7209
G01 X11.7559 Y-7.7317
G01 X11.8111 Y-7.7576
G01 X11.8221 Y-7.7623
G01 X11.8444 Y-7.7709
G01 X11.8906 Y-7.7875
G01 X11.9133 Y-7.7950
G01 X11.9364 Y-7.8014
G01 X11.9840 Y-7.8133
G01 X12.0073 Y-7.8185
G01 X12.0309 Y-7.8226
G01 X12.0795 Y-7.8298
G01 X12.1032 Y-7.8327
G01 X12.1271 Y-7.8345
G01 X12.1880 Y-7.8374
G01 X13.2120 Y-7.8374
G01 X13.2729 Y-7.8345
G01 X13.2968 Y-7.8327
G01 X13.3205 Y-7.8298
G01 X13.3691 Y-7.8226
G01 X13.3809 Y-7.8207
G01 X13.4044 Y-7.8160
G01 X13.4636 Y-7.8014
G01 X13.4867 Y-7.7950
G01 X13.5094 Y-7.7875
G01 X13.5556 Y-7.7709
G01 X13.5779 Y-7.7623
G01 X13.5998 Y-7.7526
G01 X13.6441 Y-7.7317
G01 X13.6549 Y-7.7264
G01 X13.6760 Y-7.7151
G01 X13.7284 Y-7.6839
G01 X13.7486 Y-7.6711
G01 X13.7682 Y-7.6573
G01 X13.8171 Y-7.6208
G01 X13.8265 Y-7.6133
G01 X13.8446 Y-7.5977
G01 X13.8809 Y-7.5648
G01 X13.8983 Y-7.5483
G01 X13.9148 Y-7.5309
G01 X13.9477 Y-7.4946
G01 X13.9556 Y-7.4856
G01 X13.9708 Y-7.4671
G01 X14.0073 Y-7.4182
G01 X14.0211 Y-7.3986
G01 X14.0339 Y-7.3784
G01 X14.0651 Y-7.3260
G01 X14.0764 Y-7.3049
G01 X14.0817 Y-7.2941
G01 X14.1026 Y-7.2498
G01 X14.1123 Y-7.2279
G01 X14.1209 Y-7.2056
G01 X14.1414 Y-7.1481
G01 X14.1450 Y-7.1367
G01 X14.1514 Y-7.1136
G01 X14.1660 Y-7.0544
G01 X14.1707 Y-7.0309
G01 X14.1798 Y-6.9705
G01 X14.1827 Y-6.9468
G01 X14.1845 Y-6.9229
G01 X14.1869 Y-6.8739
G01 X14.1875 Y-6.8500
G01 X14.1875 Y-5.8500
G01 X14.1869 Y-5.8261
G01 X14.1845 Y-5.7771
G01 X14.1827 Y-5.7532
G01 X14.1798 Y-5.7295
G01 X14.1707 Y-5.6691
G01 X14.1685 Y-5.6573
G01 X14.1633 Y-5.6340
G01 X14.1514 Y-5.5864
G01 X14.1450 Y-5.5633
G01 X14.1375 Y-5.5406
G01 X14.1209 Y-5.4944
G01 X14.1123 Y-5.4721
G01 X14.1026 Y-5.4502
G01 X14.0764 Y-5.3951
G01 X14.0651 Y-5.3740
G01 X14.0591 Y-5.3637
G01 X14.0339 Y-5.3216
G01 X14.0211 Y-5.3014
G01 X14.0073 Y-5.2818
G01 X13.9781 Y-5.2424
G01 X13.9633 Y-5.2235
G01 X13.9477 Y-5.2054
G01 X13.9066 Y-5.1603
G01 X13.8897 Y-5.1434
G01 X13.8446 Y-5.1023
G01 X13.8265 Y-5.0867
G01 X13.8076 Y-5.0719
G01 X13.7682 Y-5.0427
G01 X13.7486 Y-5.0289
G01 X13.7386 Y-5.0224
G01 X13.6863 Y-4.9909
G01 X13.6655 Y-4.9791
G01 X13.6441 Y-4.9683
G01 X13.5889 Y-4.9424
G01 X13.5779 Y-4.9377
G01 X13.5556 Y-4.9291
G01 X13.5094 Y-4.9125
G01 X13.4867 Y-4.9050
G01 X13.4636 Y-4.8986
G01 X13.4044 Y-4.8840
G01 X13.3927 Y-4.8815
G01 X13.3691 Y-4.8774
G01 X13.3087 Y-4.8686
G01 X13.2849 Y-4.8662
G01 X13.2239 Y-4.8631
G01 X13.2000 Y-4.8625
G01 X12.6094 Y-4.8625
G01 X12.4178 Y-4.6709
G01 X12.4178 Y-3.4403
G01 X12.4483 Y-3.4066
G01 X12.4639 Y-3.3885
G01 X12.4786 Y-3.3696
G01 X12.5283 Y-3.3026
G01 X12.5353 Y-3.2929
G01 X12.5486 Y-3.2730
G01 X12.5978 Y-3.1913
G01 X12.6038 Y-3.1810
G01 X12.6151 Y-3.1599
G01 X12.6610 Y-3.0628
G01 X12.6701 Y-3.0407
G01 X12.6743 Y-3.0295
G01 X12.7000 Y-2.9577
G01 X12.7257 Y-3.0295
G01 X12.7343 Y-3.0518
G01 X12.7440 Y-3.0737
G01 X12.7797 Y-3.1491
G01 X12.7904 Y-3.1705
G01 X12.7962 Y-3.1810
G01 X12.8514 Y-3.2730
G01 X12.8647 Y-3.2929
G01 X12.8717 Y-3.3026
G01 X12.9214 Y-3.3696
G01 X12.9361 Y-3.3885
G01 X12.9517 Y-3.4066
G01 X13.0077 Y-3.4684
G01 X13.0242 Y-3.4858
G01 X13.0416 Y-3.5023
G01 X13.1034 Y-3.5583
G01 X13.1215 Y-3.5739
G01 X13.1404 Y-3.5886
G01 X13.2074 Y-3.6383
G01 X13.2269 Y-3.6521
G01 X13.2471 Y-3.6649
G01 X13.3187 Y-3.7078
G01 X13.3395 Y-3.7196
G01 X13.3609 Y-3.7303
G01 X13.4472 Y-3.7710
G01 X13.4582 Y-3.7757
G01 X13.4805 Y-3.7843
G01 X13.5590 Y-3.8124
G01 X13.5817 Y-3.8199
G01 X13.6048 Y-3.8263
G01 X13.6974 Y-3.8493
G01 X13.7091 Y-3.8518
G01 X13.7326 Y-3.8559
G01 X13.8270 Y-3.8697
G01 X13.8508 Y-3.8721
G01 X13.9082 Y-3.8750
G01 X16.2925 Y-6.2594
G01 X16.2925 Y-6.8500
G01 X16.2931 Y-6.8739
G01 X16.2955 Y-6.9229
G01 X16.2973 Y-6.9468
G01 X16.3002 Y-6.9705
G01 X16.3074 Y-7.0191
G01 X16.3115 Y-7.0427
G01 X16.3140 Y-7.0544
G01 X16.3286 Y-7.1136
G01 X16.3350 Y-7.1367
G01 X16.3425 Y-7.1594
G01 X16.3591 Y-7.2056
G01 X16.3677 Y-7.2279
G01 X16.3774 Y-7.2498
G01 X16.3983 Y-7.2941
G01 X16.4091 Y-7.3155
G01 X16.4209 Y-7.3363
G01 X16.4461 Y-7.3784
G01 X16.4589 Y-7.3986
G01 X16.4727 Y-7.4182
G01 X16.5019 Y-7.4576
G01 X16.5167 Y-7.4765
G01 X16.5323 Y-7.4946
G01 X16.5734 Y-7.5397
G01 X16.5903 Y-7.5566
G01 X16.6354 Y-7.5977
G01 X16.6535 Y-7.6133
G01 X16.6724 Y-7.6281
G01 X16.7118 Y-7.6573
G01 X16.7314 Y-7.6711
G01 X16.7516 Y-7.6839
G01 X16.7937 Y-7.7091
G01 X16.8145 Y-7.7209
G01 X16.8251 Y-7.7264
G01 X16.8911 Y-7.7576
G01 X16.9021 Y-7.7623
G01 X16.9244 Y-7.7709
G01 X16.9706 Y-7.7875
G01 X16.9933 Y-7.7950
G01 X17.0164 Y-7.8014
G01 X17.0640 Y-7.8133
G01 X17.0873 Y-7.8185
G01 X17.0991 Y-7.8207
G01 X17.1595 Y-7.8298
G01 X17.1832 Y-7.8327
G01 X17.2071 Y-7.8345
G01 X17.2561 Y-7.8369
G01 X17.2800 Y-7.8375
G01 X18.2800 Y-7.8375
G01 X18.3039 Y-7.8369
G01 X18.3529 Y-7.8345
G01 X18.3768 Y-7.8327
G01 X18.4005 Y-7.8298
G01 X18.4609 Y-7.8207
G01 X18.4844 Y-7.8160
G01 X18.4960 Y-7.8133
G01 X18.5436 Y-7.8014
G01 X18.5667 Y-7.7950
G01 X18.5894 Y-7.7875
G01 X18.6468 Y-7.7668
G01 X18.6579 Y-7.7623
G01 X18.6798 Y-7.7526
G01 X18.7241 Y-7.7317
G01 X18.7455 Y-7.7209
G01 X18.7663 Y-7.7091
G01 X18.8084 Y-7.6839
G01 X18.8186 Y-7.6776
G01 X18.8385 Y-7.6643
G01 X18.8876 Y-7.6281
G01 X18.9065 Y-7.6133
G01 X18.9246 Y-7.5977
G01 X18.9609 Y-7.5648
G01 X18.9783 Y-7.5483
G01 X18.9866 Y-7.5397
G01 X19.0356 Y-7.4856
G01 X19.0433 Y-7.4765
G01 X19.0581 Y-7.4576
G01 X19.0873 Y-7.4182
G01 X19.1011 Y-7.3986
G01 X19.1139 Y-7.3784
G01 X19.1391 Y-7.3363
G01 X19.1509 Y-7.3155
G01 X19.1564 Y-7.3049
G01 X19.1876 Y-7.2389
G01 X19.1968 Y-7.2168
G01 X19.2009 Y-7.2056
G01 X19.2214 Y-7.1481
G01 X19.2283 Y-7.1252
G01 X19.2433 Y-7.0660
G01 X19.2485 Y-7.0427
G01 X19.2526 Y-7.0191
G01 X19.2614 Y-6.9587
G01 X19.2638 Y-6.9349
G01 X19.2645 Y-6.9229
G01 X19.2669 Y-6.8739
G01 X19.2675 Y-6.8500
G01 X19.2675 Y-5.8500
G01 X19.2669 Y-5.8261
G01 X19.2638 Y-5.7651
G01 X19.2614 Y-5.7413
G01 X19.2526 Y-5.6809
G01 X19.2485 Y-5.6573
G01 X19.2433 Y-5.6340
G01 X19.2314 Y-5.5864
G01 X19.2250 Y-5.5633
G01 X19.2175 Y-5.5406
G01 X19.2009 Y-5.4944
G01 X19.1923 Y-5.4721
G01 X19.1826 Y-5.4502
G01 X19.1617 Y-5.4059
G01 X19.1509 Y-5.3845
G01 X19.1391 Y-5.3637
G01 X19.1139 Y-5.3216
G01 X19.1011 Y-5.3014
G01 X19.0873 Y-5.2818
G01 X19.0508 Y-5.2329
G01 X19.0356 Y-5.2144
G01 X18.9948 Y-5.1691
G01 X18.9783 Y-5.1517
G01 X18.9609 Y-5.1352
G01 X18.9246 Y-5.1023
G01 X18.9065 Y-5.0867
G01 X18.8876 Y-5.0719
G01 X18.8385 Y-5.0357
G01 X18.8186 Y-5.0224
G01 X18.7663 Y-4.9909
G01 X18.7455 Y-4.9791
G01 X18.7241 Y-4.9683
G01 X18.6689 Y-4.9424
G01 X18.6468 Y-4.9332
G01 X18.5894 Y-4.9125
G01 X18.5667 Y-4.9050
G01 X18.5436 Y-4.8986
G01 X18.4960 Y-4.8867
G01 X18.4727 Y-4.8815
G01 X18.4491 Y-4.8774
G01 X18.4005 Y-4.8702
G01 X18.3768 Y-4.8673
G01 X18.3649 Y-4.8662
G01 X18.3039 Y-4.8631
G01 X18.2800 Y-4.8625
G01 X17.6894 Y-4.8625
G01 X15.3050 Y-2.4782
G01 X15.3021 Y-2.4208
G01 X15.2997 Y-2.3970
G01 X15.2859 Y-2.3026
G01 X15.2840 Y-2.2908
G01 X15.2793 Y-2.2674
G01 X15.2563 Y-2.1748
G01 X15.2499 Y-2.1517
G01 X15.2424 Y-2.1290
G01 X15.2143 Y-2.0505
G01 X15.2057 Y-2.0282
G01 X15.2010 Y-2.0172
G01 X15.1603 Y-1.9309
G01 X15.1496 Y-1.9095
G01 X15.1378 Y-1.8887
G01 X15.0949 Y-1.8171
G01 X15.0821 Y-1.7969
G01 X15.0683 Y-1.7774
G01 X15.0186 Y-1.7104
G01 X15.0039 Y-1.6915
G01 X14.9883 Y-1.6734
G01 X14.9323 Y-1.6116
G01 X14.9158 Y-1.5942
G01 X14.8984 Y-1.5777
G01 X14.8366 Y-1.5217
G01 X14.8185 Y-1.5061
G01 X14.7996 Y-1.4914
G01 X14.7326 Y-1.4417
G01 X14.7131 Y-1.4279
G01 X14.6929 Y-1.4151
G01 X14.6213 Y-1.3722
G01 X14.6005 Y-1.3604
G01 X14.5791 Y-1.3497
G01 X14.5037 Y-1.3140
G01 X14.4818 Y-1.3043
G01 X14.4595 Y-1.2957
G01 X14.3810 Y-1.2676
G01 X14.3583 Y-1.2601
G01 X14.3352 Y-1.2537
G01 X14.2543 Y-1.2334
G01 X14.2309 Y-1.2282
G01 X14.2074 Y-1.2241
G01 X14.1248 Y-1.2119
G01 X14.1011 Y-1.2089
G01 X14.0772 Y-1.2072
G01 X13.9939 Y-1.2031
G01 X13.9700 Y-1.2025
G01 X13.9461 Y-1.2031
G01 X13.8628 Y-1.2072
G01 X13.8389 Y-1.2089
G01 X13.8152 Y-1.2119
G01 X13.7326 Y-1.2241
G01 X13.7091 Y-1.2282
G01 X13.6857 Y-1.2334
G01 X13.6048 Y-1.2537
G01 X13.5817 Y-1.2601
G01 X13.5590 Y-1.2676
G01 X13.4805 Y-1.2957
G01 X13.4582 Y-1.3043
G01 X13.4363 Y-1.3140
G01 X13.3609 Y-1.3497
G01 X13.3501 Y-1.3549
G01 X13.3290 Y-1.3662
G01 X13.2471 Y-1.4151
G01 X13.2269 Y-1.4279
G01 X13.2074 Y-1.4417
G01 X13.1404 Y-1.4914
G01 X13.1215 Y-1.5061
G01 X13.1034 Y-1.5217
G01 X13.0328 Y-1.5859
G01 X13.0159 Y-1.6028
G01 X13.0077 Y-1.6116
G01 X12.9517 Y-1.6734
G01 X12.9361 Y-1.6915
G01 X12.9214 Y-1.7104
G01 X12.8717 Y-1.7774
G01 X12.8579 Y-1.7969
G01 X12.8451 Y-1.8171
G01 X12.8022 Y-1.8887
G01 X12.7904 Y-1.9095
G01 X12.7797 Y-1.9309
G01 X12.7440 Y-2.0063
G01 X12.7343 Y-2.0282
G01 X12.7257 Y-2.0505
G01 X12.7000 Y-2.1223
G01 X12.6743 Y-2.0505
G01 X12.6657 Y-2.0282
G01 X12.6560 Y-2.0063
G01 X12.6203 Y-1.9309
G01 X12.6096 Y-1.9095
G01 X12.5978 Y-1.8887
G01 X12.5549 Y-1.8171
G01 X12.5421 Y-1.7969
G01 X12.5283 Y-1.7774
G01 X12.4786 Y-1.7104
G01 X12.4639 Y-1.6915
G01 X12.4483 Y-1.6734
G01 X12.3923 Y-1.6116
G01 X12.3758 Y-1.5942
G01 X12.3584 Y-1.5777
G01 X12.2966 Y-1.5217
G01 X12.2785 Y-1.5061
G01 X12.2596 Y-1.4914
G01 X12.1926 Y-1.4417
G01 X12.1731 Y-1.4279
G01 X12.1529 Y-1.4151
G01 X12.0813 Y-1.3722
G01 X12.0605 Y-1.3604
G01 X12.0391 Y-1.3497
G01 X11.9637 Y-1.3140
G01 X11.9418 Y-1.3043
G01 X11.9195 Y-1.2957
G01 X11.8410 Y-1.2676
G01 X11.8183 Y-1.2601
G01 X11.7952 Y-1.2537
G01 X11.7143 Y-1.2334
G01 X11.6909 Y-1.2282
G01 X11.6674 Y-1.2241
G01 X11.5730 Y-1.2103
G01 X11.5611 Y-1.2089
G01 X11.5372 Y-1.2072
G01 X11.4420 Y-1.2026
G01 X11.4180 Y-1.2026
G01 X11.4061 Y-1.2031
G01 X11.3228 Y-1.2072
G01 X11.3108 Y-1.2079
G01 X11.2870 Y-1.2103
G01 X11.1926 Y-1.2241
G01 X11.1691 Y-1.2282
G01 X11.1457 Y-1.2334
G01 X11.0648 Y-1.2537
G01 X11.0417 Y-1.2601
G01 X11.0190 Y-1.2676
G01 X10.9405 Y-1.2957
G01 X10.9182 Y-1.3043
G01 X10.8963 Y-1.3140
G01 X10.8209 Y-1.3497
G01 X10.7995 Y-1.3604
G01 X10.7787 Y-1.3722
G01 X10.6970 Y-1.4214
G01 X10.6869 Y-1.4279
G01 X10.6674 Y-1.4417
G01 X10.5908 Y-1.4986
G01 X10.5723 Y-1.5138
G01 X10.5634 Y-1.5217
G01 X10.5016 Y-1.5777
G01 X10.4842 Y-1.5942
G01 X10.4677 Y-1.6116
G01 X10.4117 Y-1.6734
G01 X10.4038 Y-1.6823
G01 X10.3886 Y-1.7008
G01 X10.3317 Y-1.7774
G01 X10.3179 Y-1.7969
G01 X10.3051 Y-1.8171
G01 X10.2622 Y-1.8887
G01 X10.2504 Y-1.9095
G01 X10.2397 Y-1.9309
G01 X10.2040 Y-2.0063
G01 X10.1943 Y-2.0282
G01 X10.1857 Y-2.0505
G01 X10.1600 Y-2.1223
G01 X10.1343 Y-2.0505
G01 X10.1257 Y-2.0282
G01 X10.1160 Y-2.0063
G01 X10.0803 Y-1.9309
G01 X10.0696 Y-1.9095
G01 X10.0578 Y-1.8887
G01 X10.0149 Y-1.8171
G01 X10.0021 Y-1.7969
G01 X9.9883 Y-1.7774
G01 X9.9386 Y-1.7104
G01 X9.9239 Y-1.6915
G01 X9.9083 Y-1.6734
G01 X9.8523 Y-1.6116
G01 X9.8358 Y-1.5942
G01 X9.8184 Y-1.5777
G01 X9.7477 Y-1.5138
G01 X9.7385 Y-1.5061
G01 X9.7196 Y-1.4914
G01 X9.6526 Y-1.4417
G01 X9.6331 Y-1.4279
G01 X9.6230 Y-1.4214
G01 X9.5413 Y-1.3722
G01 X9.5205 Y-1.3604
G01 X9.4991 Y-1.3497
G01 X9.4237 Y-1.3140
G01 X9.4018 Y-1.3043
G01 X9.3795 Y-1.2957
G01 X9.3010 Y-1.2676
G01 X9.2783 Y-1.2601
G01 X9.2552 Y-1.2537
G01 X9.1743 Y-1.2334
G01 X9.1509 Y-1.2282
G01 X9.1392 Y-1.2260
G01 X9.0448 Y-1.2119
G01 X9.0211 Y-1.2089
G01 X8.9972 Y-1.2072
G01 X8.9020 Y-1.2026
G01 X8.8780 Y-1.2026
G01 X8.8661 Y-1.2031
G01 X8.7828 Y-1.2072
G01 X8.7589 Y-1.2089
G01 X8.7352 Y-1.2119
G01 X8.6526 Y-1.2241
G01 X8.6291 Y-1.2282
G01 X8.6057 Y-1.2334
G01 X8.5248 Y-1.2537
G01 X8.5017 Y-1.2601
G01 X8.4790 Y-1.2676
G01 X8.4005 Y-1.2957
G01 X8.3782 Y-1.3043
G01 X8.3563 Y-1.3140
G01 X8.2701 Y-1.3549
G01 X8.2490 Y-1.3662
G01 X8.2387 Y-1.3722
G01 X8.1671 Y-1.4151
G01 X8.1469 Y-1.4279
G01 X8.1274 Y-1.4417
G01 X8.0604 Y-1.4914
G01 X8.0508 Y-1.4986
G01 X8.0323 Y-1.5138
G01 X7.9616 Y-1.5777
G01 X7.9528 Y-1.5859
G01 X7.9359 Y-1.6028
G01 X7.8717 Y-1.6734
G01 X7.8561 Y-1.6915
G01 X7.8414 Y-1.7104
G01 X7.7847 Y-1.7871
G01 X7.7714 Y-1.8070
G01 X7.7651 Y-1.8171
G01 X7.7162 Y-1.8990
G01 X7.7049 Y-1.9201
G01 X7.6875 Y-1.9566
G01 X7.6875 Y-1.6900
G01 X7.6869 Y-1.6661
G01 X7.6852 Y-1.6422
G01 X7.6822 Y-1.6185
G01 X7.6803 Y-1.6067
G01 X7.6757 Y-1.5832
G01 X7.6698 Y-1.5600
G01 X7.6665 Y-1.5485
G01 X7.6590 Y-1.5258
G01 X7.6504 Y-1.5034
G01 X7.6407 Y-1.4816
G01 X7.6299 Y-1.4602
G01 X7.6181 Y-1.4394
G01 X7.6053 Y-1.4192
G01 X7.5916 Y-1.3996
G01 X7.5768 Y-1.3807
G01 X7.5691 Y-1.3716
G01 X7.5531 Y-1.3538
G01 X7.5362 Y-1.3369
G01 X7.5184 Y-1.3209
G01 X7.4999 Y-1.3057
G01 X7.4807 Y-1.2914
G01 X7.4608 Y-1.2781
G01 X7.4403 Y-1.2658
G01 X7.4298 Y-1.2601
G01 X7.4084 Y-1.2493
G01 X7.3866 Y-1.2396
G01 X7.3642 Y-1.2310
G01 X7.3415 Y-1.2235
G01 X7.3185 Y-1.2171
G01 X7.3068 Y-1.2143
G01 X7.2833 Y-1.2097
G01 X7.2715 Y-1.2078
G01 X7.2597 Y-1.2062
G01 X7.2359 Y-1.2038
G01 X7.2239 Y-1.2031
G01 X7.2000 Y-1.2025
G01 X5.4880 Y-1.2026
G01 X5.4641 Y-1.2038
G01 X5.4403 Y-1.2062
G01 X5.4167 Y-1.2097
G01 X5.3932 Y-1.2143
G01 X5.3700 Y-1.2202
G01 X5.3471 Y-1.2271
G01 X5.3358 Y-1.2310
G01 X5.3134 Y-1.2396
G01 X5.2916 Y-1.2493
G01 X5.2702 Y-1.2601
G01 X5.2494 Y-1.2719
G01 X5.2392 Y-1.2781
G01 X5.2193 Y-1.2914
G01 X5.2001 Y-1.3057
G01 X5.1816 Y-1.3209
G01 X5.1638 Y-1.3369
G01 X5.1553 Y-1.3453
G01 X5.1388 Y-1.3626
G01 X5.1309 Y-1.3716
G01 X5.1157 Y-1.3901
G01 X5.1014 Y-1.4093
G01 X5.0881 Y-1.4292
G01 X5.0758 Y-1.4497
G01 X5.0701 Y-1.4602
G01 X5.0593 Y-1.4816
G01 X5.0496 Y-1.5034
G01 X5.0410 Y-1.5258
G01 X5.0335 Y-1.5485
G01 X5.0271 Y-1.5715
G01 X5.0243 Y-1.5832
G01 X5.0197 Y-1.6067
G01 X5.0162 Y-1.6303
G01 X5.0138 Y-1.6541
G01 X5.0126 Y-1.6780
G01 X5.0125 Y-2.4806
G01 X2.6306 Y-4.8625
G01 X2.0400 Y-4.8625
G01 X2.0161 Y-4.8631
G01 X1.9671 Y-4.8655
G01 X1.9432 Y-4.8673
G01 X1.9195 Y-4.8702
G01 X1.8709 Y-4.8774
G01 X1.8473 Y-4.8815
G01 X1.8356 Y-4.8840
G01 X1.7764 Y-4.8986
G01 X1.7533 Y-4.9050
G01 X1.7306 Y-4.9125
G01 X1.6844 Y-4.9291
G01 X1.6621 Y-4.9377
G01 X1.6402 Y-4.9474
G01 X1.5851 Y-4.9736
G01 X1.5640 Y-4.9849
G01 X1.5116 Y-5.0161
G01 X1.4914 Y-5.0289
G01 X1.4718 Y-5.0427
G01 X1.4324 Y-5.0719
G01 X1.4135 Y-5.0867
G01 X1.3954 Y-5.1023
G01 X1.3591 Y-5.1352
G01 X1.3417 Y-5.1517
G01 X1.3252 Y-5.1691
G01 X1.2923 Y-5.2054
G01 X1.2767 Y-5.2235
G01 X1.2619 Y-5.2424
G01 X1.2257 Y-5.2915
G01 X1.2124 Y-5.3114
G01 X1.1809 Y-5.3637
G01 X1.1749 Y-5.3740
G01 X1.1636 Y-5.3951
G01 X1.1374 Y-5.4502
G01 X1.1277 Y-5.4721
G01 X1.1191 Y-5.4944
G01 X1.1025 Y-5.5406
G01 X1.0950 Y-5.5633
G01 X1.0917 Y-5.5748
G01 X1.0767 Y-5.6340
G01 X1.0715 Y-5.6573
G01 X1.0674 Y-5.6809
G01 X1.0586 Y-5.7413
G01 X1.0573 Y-5.7532
G01 X1.0555 Y-5.7771
G01 X1.0531 Y-5.8261
G01 X1.0525 Y-5.8500
G01 X1.0525 Y-6.8500
G01 X1.0531 Y-6.8739
G01 X1.0555 Y-6.9229
G01 X1.0573 Y-6.9468
G01 X1.0602 Y-6.9705
G01 X1.0693 Y-7.0309
G01 X1.0740 Y-7.0544
G01 X1.0886 Y-7.1136
G01 X1.0950 Y-7.1367
G01 X1.1025 Y-7.1594
G01 X1.1191 Y-7.2056
G01 X1.1277 Y-7.2279
G01 X1.1374 Y-7.2498
G01 X1.1636 Y-7.3049
G01 X1.1691 Y-7.3155
G01 X1.1809 Y-7.3363
G01 X1.2061 Y-7.3784
G01 X1.2189 Y-7.3986
G01 X1.2327 Y-7.4182
G01 X1.2619 Y-7.4576
G01 X1.2692 Y-7.4671
G01 X1.2844 Y-7.4856
G01 X1.3334 Y-7.5397
G01 X1.3417 Y-7.5483
G01 X1.3591 Y-7.5648
G01 X1.3954 Y-7.5977
G01 X1.4135 Y-7.6133
G01 X1.4324 Y-7.6281
G01 X1.4815 Y-7.6643
G01 X1.5014 Y-7.6776
G01 X1.5116 Y-7.6839
G01 X1.5537 Y-7.7091
G01 X1.5745 Y-7.7209
G01 X1.5959 Y-7.7317
G01 X1.6402 Y-7.7526
G01 X1.6621 Y-7.7623
G01 X1.6732 Y-7.7668
G01 X1.7306 Y-7.7875
G01 X1.7533 Y-7.7950
G01 X1.7764 Y-7.8014
G01 X1.8240 Y-7.8133
G01 X1.8473 Y-7.8185
G01 X1.8591 Y-7.8207
G01 X1.9195 Y-7.8298
G01 X1.9432 Y-7.8327
G01 X1.9671 Y-7.8345
G01 X2.0161 Y-7.8369
G01 X2.0400 Y-7.8375
G01 X3.0400 Y-7.8375
G01 X3.0639 Y-7.8369
G01 X3.1249 Y-7.8338
G01 X3.1487 Y-7.8314
G01 X3.1605 Y-7.8298
G01 X3.2091 Y-7.8226
G01 X3.2327 Y-7.8185
G01 X3.2560 Y-7.8133
G01 X3.3152 Y-7.7983
G01 X3.3381 Y-7.7914
G01 X3.3494 Y-7.7875
G01 X3.3956 Y-7.7709
G01 X3.4179 Y-7.7623
G01 X3.4398 Y-7.7526
G01 X3.4841 Y-7.7317
G01 X3.4949 Y-7.7264
G01 X3.5160 Y-7.7151
G01 X3.5786 Y-7.6776
G01 X3.5886 Y-7.6711
G01 X3.6082 Y-7.6573
G01 X3.6571 Y-7.6208
G01 X3.6756 Y-7.6056
G01 X3.7209 Y-7.5648
G01 X3.7383 Y-7.5483
G01 X3.7548 Y-7.5309
G01 X3.7956 Y-7.4856
G01 X3.8108 Y-7.4671
G01 X3.8181 Y-7.4576
G01 X3.8473 Y-7.4182
G01 X3.8611 Y-7.3986
G01 X3.8739 Y-7.3784
G01 X3.8991 Y-7.3363
G01 X3.9109 Y-7.3155
G01 X3.9217 Y-7.2941
G01 X3.9426 Y-7.2498
G01 X3.9523 Y-7.2279
G01 X3.9609 Y-7.2056
G01 X3.9775 Y-7.1594
G01 X3.9850 Y-7.1367
G01 X3.9914 Y-7.1136
G01 X4.0060 Y-7.0544
G01 X4.0107 Y-7.0309
G01 X4.0126 Y-7.0191
G01 X4.0198 Y-6.9705
G01 X4.0227 Y-6.9468
G01 X4.0245 Y-6.9229
G01 X4.0269 Y-6.8739
G01 X4.0275 Y-6.8500
G01 X4.0275 Y-6.2594
G01 X6.4094 Y-3.8775
G01 X7.2000 Y-3.8775
G01 X7.2239 Y-3.8769
G01 X7.2478 Y-3.8752
G01 X7.2597 Y-3.8738
G01 X7.2833 Y-3.8703
G01 X7.2951 Y-3.8681
G01 X7.3185 Y-3.8629
G01 X7.3415 Y-3.8565
G01 X7.3529 Y-3.8529
G01 X7.3754 Y-3.8448
G01 X7.3866 Y-3.8404
G01 X7.4084 Y-3.8307
G01 X7.4298 Y-3.8199
G01 X7.4403 Y-3.8142
G01 X7.4608 Y-3.8019
G01 X7.4807 Y-3.7886
G01 X7.4904 Y-3.7816
G01 X7.5093 Y-3.7668
G01 X7.5184 Y-3.7591
G01 X7.5274 Y-3.7512
G01 X7.5447 Y-3.7347
G01 X7.5612 Y-3.7174
G01 X7.5691 Y-3.7084
G01 X7.5843 Y-3.6899
G01 X7.5916 Y-3.6804
G01 X7.6053 Y-3.6608
G01 X7.6119 Y-3.6508
G01 X7.6242 Y-3.6303
G01 X7.6299 Y-3.6198
G01 X7.6354 Y-3.6092
G01 X7.6457 Y-3.5876
G01 X7.6504 Y-3.5766
G01 X7.6590 Y-3.5542
G01 X7.6665 Y-3.5315
G01 X7.6698 Y-3.5200
G01 X7.6757 Y-3.4968
G01 X7.6781 Y-3.4851
G01 X7.6822 Y-3.4615
G01 X7.6852 Y-3.4378
G01 X7.6869 Y-3.4139
G01 X7.6875 Y-3.3900
G01 X7.6875 Y-3.1234
G01 X7.7049 Y-3.1599
G01 X7.7162 Y-3.1810
G01 X7.7651 Y-3.2629
G01 X7.7779 Y-3.2831
G01 X7.7917 Y-3.3026
G01 X7.8486 Y-3.3792
G01 X7.8638 Y-3.3977
G01 X7.9023 Y-3.4403
G01 X7.9022 Y-4.7309
G01 X7.7706 Y-4.8625
G01 X7.1800 Y-4.8625
G01 X7.1561 Y-4.8631
G01 X7.0951 Y-4.8662
G01 X7.0713 Y-4.8686
G01 X7.0109 Y-4.8774
G01 X6.9873 Y-4.8815
G01 X6.9756 Y-4.8840
G01 X6.9164 Y-4.8986
G01 X6.8933 Y-4.9050
G01 X6.8706 Y-4.9125
G01 X6.8244 Y-4.9291
G01 X6.8021 Y-4.9377
G01 X6.7802 Y-4.9474
G01 X6.7251 Y-4.9736
G01 X6.7040 Y-4.9849
G01 X6.6516 Y-5.0161
G01 X6.6314 Y-5.0289
G01 X6.6118 Y-5.0427
G01 X6.5629 Y-5.0792
G01 X6.5444 Y-5.0944
G01 X6.4991 Y-5.1352
G01 X6.4817 Y-5.1517
G01 X6.4734 Y-5.1603
G01 X6.4323 Y-5.2054
G01 X6.4167 Y-5.2235
G01 X6.4019 Y-5.2424
G01 X6.3727 Y-5.2818
G01 X6.3657 Y-5.2915
G01 X6.3524 Y-5.3114
G01 X6.3209 Y-5.3637
G01 X6.3091 Y-5.3845
G01 X6.2983 Y-5.4059
G01 X6.2774 Y-5.4502
G01 X6.2724 Y-5.4611
G01 X6.2632 Y-5.4832
G01 X6.2425 Y-5.5406
G01 X6.2350 Y-5.5633
G01 X6.2286 Y-5.5864
G01 X6.2167 Y-5.6340
G01 X6.2140 Y-5.6456
G01 X6.2093 Y-5.6691
G01 X6.2002 Y-5.7295
G01 X6.1973 Y-5.7532
G01 X6.1955 Y-5.7771
G01 X6.1931 Y-5.8261
G01 X6.1925 Y-5.8500
G01 X6.1925 Y-6.8500
G01 X6.1931 Y-6.8739
G01 X6.1955 Y-6.9229
G01 X6.1973 Y-6.9468
G01 X6.2002 Y-6.9705
G01 X6.2074 Y-7.0191
G01 X6.2115 Y-7.0427
G01 X6.2167 Y-7.0660
G01 X6.2286 Y-7.1136
G01 X6.2350 Y-7.1367
G01 X6.2425 Y-7.1594
G01 X6.2591 Y-7.2056
G01 X6.2677 Y-7.2279
G01 X6.2724 Y-7.2389
G01 X6.2983 Y-7.2941
G01 X6.3091 Y-7.3155
G01 X6.3209 Y-7.3363
G01 X6.3524 Y-7.3886
G01 X6.3657 Y-7.4085
G01 X6.3727 Y-7.4182
G01 X6.4019 Y-7.4576
G01 X6.4167 Y-7.4765
G01 X6.4323 Y-7.4946
G01 X6.4652 Y-7.5309
G01 X6.4817 Y-7.5483
G01 X6.4903 Y-7.5566
G01 X6.5354 Y-7.5977
G01 X6.5535 Y-7.6133
G01 X6.5724 Y-7.6281
G01 X6.6118 Y-7.6573
G01 X6.6215 Y-7.6643
G01 X6.6414 Y-7.6776
G01 X6.6937 Y-7.7091
G01 X6.7145 Y-7.7209
G01 X6.7359 Y-7.7317
G01 X6.7802 Y-7.7526
G01 X6.8021 Y-7.7623
G01 X6.8132 Y-7.7668
G01 X6.8706 Y-7.7875
G01 X6.8933 Y-7.7950
G01 X6.9164 Y-7.8014
G01 X6.9756 Y-7.8160
G01 X6.9873 Y-7.8185
G01 X7.0109 Y-7.8226
G01 X7.0595 Y-7.8298
G01 X7.0832 Y-7.8327
G01 X7.1071 Y-7.8345
G01 X7.1680 Y-7.8374
G01 X8.1920 Y-7.8374
G01 X8.2529 Y-7.8345
G01 X8.2768 Y-7.8327
G01 X8.3005 Y-7.8298
G01 X8.3491 Y-7.8226
G01 X8.3727 Y-7.8185
G01 X8.3960 Y-7.8133
G01 X8.4436 Y-7.8014
G01 X8.4667 Y-7.7950
G01 X8.4894 Y-7.7875
G01 X8.5356 Y-7.7709
G01 X8.5579 Y-7.7623
G01 X8.5798 Y-7.7526
G01 X8.6241 Y-7.7317
G01 X8.6455 Y-7.7209
G01 X8.6663 Y-7.7091
G01 X8.7084 Y-7.6839
G01 X8.7286 Y-7.6711
G01 X8.7482 Y-7.6573
G01 X8.7876 Y-7.6281
G01 X8.8065 Y-7.6133
G01 X8.8246 Y-7.5977
G01 X8.8609 Y-7.5648
G01 X8.8783 Y-7.5483
G01 X8.8948 Y-7.5309
G01 X8.9356 Y-7.4856
G01 X8.9508 Y-7.4671
G01 X8.9873 Y-7.4182
G01 X9.0011 Y-7.3986
G01 X9.0139 Y-7.3784
G01 X9.0391 Y-7.3363
G01 X9.0509 Y-7.3155
G01 X9.0617 Y-7.2941
G01 X9.0826 Y-7.2498
G01 X9.0923 Y-7.2279
G01 X9.1009 Y-7.2056
G01 X9.1175 Y-7.1594
G01 X9.1250 Y-7.1367
G01 X9.1314 Y-7.1136
G01 X9.1433 Y-7.0660
G01 X9.1485 Y-7.0427
G01 X9.1526 Y-7.0191
G01 X9.1598 Y-6.9705
G01 X9.1627 Y-6.9468
G01 X9.1645 Y-6.9229
G01 X9.1669 Y-6.8739
G01 X9.1675 Y-6.8500
G01 X9.1675 Y-6.2594
G01 X9.5884 Y-5.8384
G01 X9.6049 Y-5.8211
G01 X9.6379 Y-5.7847
G01 X9.6535 Y-5.7666
G01 X9.6683 Y-5.7478
G01 X9.6975 Y-5.7083
G01 X9.7113 Y-5.6888
G01 X9.7241 Y-5.6685
G01 X9.7493 Y-5.6264
G01 X9.7611 Y-5.6056
G01 X9.7719 Y-5.5842
G01 X9.7929 Y-5.5399
G01 X9.8026 Y-5.5180
G01 X9.8112 Y-5.4957
G01 X9.8316 Y-5.4381
G01 X9.8386 Y-5.4152
G01 X9.8535 Y-5.3560
G01 X9.8588 Y-5.3327
G01 X9.8629 Y-5.3091
G01 X9.8701 Y-5.2606
G01 X9.8730 Y-5.2368
G01 X9.8748 Y-5.2130
G01 X9.8776 Y-5.1520
G01 X9.8778 Y-3.4403
G01 X9.9083 Y-3.4066
G01 X9.9239 Y-3.3885
G01 X9.9386 Y-3.3696
G01 X9.9883 Y-3.3026
G01 X9.9953 Y-3.2929
G01 X10.0086 Y-3.2730
G01 X10.0578 Y-3.1913
G01 X10.0638 Y-3.1810
G01 X10.0751 Y-3.1599
G01 X10.1210 Y-3.0628
G01 X10.1301 Y-3.0407
G01 X10.1343 Y-3.0295
G01 X10.1600 Y-2.9577
G01 X10.1857 Y-3.0295
G01 X10.1943 Y-3.0518
G01 X10.2040 Y-3.0737
G01 X10.2397 Y-3.1491
G01 X10.2504 Y-3.1705
G01 X10.2622 Y-3.1913
G01 X10.3051 Y-3.2629
G01 X10.3179 Y-3.2831
G01 X10.3317 Y-3.3026
G01 X10.3814 Y-3.3696
G01 X10.3961 Y-3.3885
G00 Z1.0000
G00 X10.6911 Y-3.2789
G01 F60.00
G01 Z-0.0450
G01 F150.00
G01 X10.7347 Y-3.3188
G01 X10.7347 Y-5.0800
G01 X10.7381 Y-5.1481
G01 X10.7465 Y-5.2062
G01 X10.7491 Y-5.2203
G01 X10.7621 Y-5.2726
G01 X10.7677 Y-5.2909
G01 X10.7877 Y-5.3461
G01 X10.8125 Y-5.3992
G01 X10.8216 Y-5.4161
G01 X10.8519 Y-5.4663
G01 X10.8926 Y-5.5211
G01 X10.9384 Y-5.5716
G01 X11.5050 Y-6.1382
G01 X11.5050 Y-6.8500
G01 X11.5083 Y-6.9181
G01 X11.5167 Y-6.9762
G01 X11.5205 Y-6.9949
G01 X11.5349 Y-7.0517
G01 X11.5545 Y-7.1070
G01 X11.5618 Y-7.1247
G01 X11.5871 Y-7.1776
G01 X11.6170 Y-7.2280
G01 X11.6248 Y-7.2401
G01 X11.6628 Y-7.2909
G01 X11.7020 Y-7.3345
G01 X11.7155 Y-7.3480
G01 X11.7591 Y-7.3872
G01 X11.8061 Y-7.4224
G01 X11.8179 Y-7.4305
G01 X11.8641 Y-7.4582
G01 X11.8809 Y-7.4672
G01 X11.9340 Y-7.4921
G01 X11.9983 Y-7.5151
G01 X12.0644 Y-7.5316
G01 X12.1319 Y-7.5417
G01 X12.2000 Y-7.5450
G01 X13.2000 Y-7.5450
G01 X13.2634 Y-7.5421
G01 X13.2776 Y-7.5405
G01 X13.3356 Y-7.5316
G01 X13.3925 Y-7.5176
G01 X13.4108 Y-7.5121
G01 X13.4660 Y-7.4921
G01 X13.5191 Y-7.4672
G01 X13.5359 Y-7.4582
G01 X13.5780 Y-7.4330
G01 X13.5901 Y-7.4252
G01 X13.6409 Y-7.3872
G01 X13.6914 Y-7.3414
G01 X13.7372 Y-7.2909
G01 X13.7724 Y-7.2439
G01 X13.7830 Y-7.2280
G01 X13.8129 Y-7.1776
G01 X13.8382 Y-7.1247
G01 X13.8439 Y-7.1115
G01 X13.8621 Y-7.0608
G01 X13.8676 Y-7.0425
G01 X13.8816 Y-6.9856
G01 X13.8911 Y-6.9229
G01 X13.8924 Y-6.9086
G01 X13.8950 Y-6.8500
G01 X13.8950 Y-5.8500
G01 X13.8924 Y-5.7914
G01 X13.8905 Y-5.7724
G01 X13.8816 Y-5.7144
G01 X13.8651 Y-5.6483
G01 X13.8421 Y-5.5840
G01 X13.8172 Y-5.5309
G01 X13.8106 Y-5.5182
G01 X13.7779 Y-5.4639
G01 X13.7372 Y-5.4091
G01 X13.6914 Y-5.3586
G01 X13.6409 Y-5.3128
G01 X13.5861 Y-5.2721
G01 X13.5276 Y-5.2371
G01 X13.4660 Y-5.2079
G01 X13.4108 Y-5.1879
G01 X13.3972 Y-5.1836
G01 X13.3449 Y-5.1705
G01 X13.3262 Y-5.1667
G01 X13.2681 Y-5.1583
G01 X13.2048 Y-5.1551
G01 X12.4882 Y-5.1550
G01 X12.1253 Y-4.7920
G01 X12.1253 Y-3.3188
G01 X12.1620 Y-3.2855
G01 X12.1723 Y-3.2755
G01 X12.2347 Y-3.2066
G01 X12.2437 Y-3.1954
G01 X12.2962 Y-3.1245
G01 X12.3040 Y-3.1125
G01 X12.3516 Y-3.0326
G01 X12.3936 Y-2.9443
G01 X12.3989 Y-2.9310
G01 X12.4300 Y-2.8433
G01 X12.4549 Y-2.7439
G01 X12.4700 Y-2.6424
G01 X12.4749 Y-2.5448
G01 X12.4748 Y-2.5304
G01 X12.4700 Y-2.4376
G01 X12.4549 Y-2.3361
G01 X12.4300 Y-2.2367
G01 X12.3955 Y-2.1401
G01 X12.3516 Y-2.0474
G01 X12.2989 Y-1.9594
G01 X12.2378 Y-1.8771
G01 X12.1689 Y-1.8011
G01 X12.0929 Y-1.7322
G01 X12.0106 Y-1.6711
G01 X11.9226 Y-1.6184
G01 X11.8299 Y-1.5745
G01 X11.7333 Y-1.5400
G01 X11.6339 Y-1.5151
G01 X11.5324 Y-1.5000
G01 X11.4300 Y-1.4950
G01 X11.3276 Y-1.5000
G01 X11.2261 Y-1.5151
G01 X11.1267 Y-1.5400
G01 X11.0301 Y-1.5745
G01 X10.9374 Y-1.6184
G01 X10.8494 Y-1.6711
G01 X10.7671 Y-1.7322
G01 X10.6911 Y-1.8011
G01 X10.6222 Y-1.8771
G01 X10.5611 Y-1.9594
G01 X10.5084 Y-2.0474
G01 X10.4645 Y-2.1401
G01 X10.4300 Y-2.2367
G01 X10.4051 Y-2.3361
G01 X10.3900 Y-2.4376
G01 X10.3850 Y-2.5400
G01 X10.3900 Y-2.6424
G01 X10.4051 Y-2.7439
G01 X10.4300 Y-2.8433
G01 X10.4645 Y-2.9399
G01 X10.5084 Y-3.0326
G01 X10.5611 Y-3.1206
G01 X10.6222 Y-3.2029
G01 X10.6911 Y-3.2789
G00 Z1.0000
G00 X10.1700 Y-1.5059
G01 F60.00
G01 Z-0.0450
G01 F150.00
G01 X10.1600 Y-1.5184
G01 X10.1377 Y-1.4913
G01 X10.1250 Y-1.4769
G01 X10.0690 Y-1.4151
G01 X10.0426 Y-1.3874
G01 X10.0149 Y-1.3610
G01 X9.9531 Y-1.3050
G01 X9.9387 Y-1.2923
G01 X9.9091 Y-1.2680
G01 X9.8269 Y-1.2067
G01 X9.7956 Y-1.1847
G01 X9.7632 Y-1.1642
G01 X9.6917 Y-1.1213
G01 X9.6584 Y-1.1025
G01 X9.6242 Y-1.0853
G01 X9.5488 Y-1.0496
G01 X9.5138 Y-1.0341
G01 X9.4781 Y-1.0203
G01 X9.3995 Y-0.9922
G01 X9.3632 Y-0.9802
G01 X9.3263 Y-0.9700
G01 X9.2454 Y-0.9497
G01 X9.2080 Y-0.9413
G01 X9.1703 Y-0.9348
G01 X9.0878 Y-0.9225
G01 X9.0498 Y-0.9178
G01 X9.0116 Y-0.9150
G01 X8.9283 Y-0.9109
G01 X8.8900 Y-0.9100
G01 X8.8517 Y-0.9109
G01 X8.7684 Y-0.9150
G01 X8.7302 Y-0.9178
G01 X8.6922 Y-0.9225
G01 X8.6097 Y-0.9348
G01 X8.5720 Y-0.9413
G01 X8.5346 Y-0.9497
G01 X8.4537 Y-0.9700
G01 X8.4168 Y-0.9802
G01 X8.3805 Y-0.9922
G01 X8.3019 Y-1.0203
G01 X8.2662 Y-1.0341
G01 X8.2312 Y-1.0496
G01 X8.1558 Y-1.0853
G01 X8.1216 Y-1.1025
G01 X8.0883 Y-1.1213
G01 X8.0168 Y-1.1642
G01 X7.9844 Y-1.1847
G01 X7.9531 Y-1.2067
G01 X7.8861 Y-1.2564
G01 X7.8610 Y-1.2760
G01 X7.8485 Y-1.2567
G01 X7.8377 Y-1.2409
G01 X7.8149 Y-1.2101
G01 X7.8029 Y-1.1952
G01 X7.7779 Y-1.1662
G01 X7.7515 Y-1.1385
G01 X7.7378 Y-1.1251
G01 X7.7095 Y-1.0994
G01 X7.6799 Y-1.0751
G01 X7.6491 Y-1.0523
G01 X7.6173 Y-1.0310
G01 X7.6010 Y-1.0210
G01 X7.5677 Y-1.0021
G01 X7.5335 Y-0.9849
G01 X7.5161 Y-0.9769
G01 X7.4807 Y-0.9623
G01 X7.4447 Y-0.9494
G01 X7.4080 Y-0.9383
G01 X7.3895 Y-0.9334
G01 X7.3522 Y-0.9250
G01 X7.3144 Y-0.9184
G01 X7.2765 Y-0.9138
G01 X7.2574 Y-0.9121
G01 X7.2191 Y-0.9102
G01 X7.2000 Y-0.9100
G01 X5.5000 Y-0.9100
G01 X5.4617 Y-0.9109
G01 X5.4235 Y-0.9138
G01 X5.4045 Y-0.9159
G01 X5.3856 Y-0.9184
G01 X5.3478 Y-0.9250
G01 X5.3105 Y-0.9334
G01 X5.2920 Y-0.9383
G01 X5.2553 Y-0.9494
G01 X5.2193 Y-0.9623
G01 X5.1839 Y-0.9769
G01 X5.1665 Y-0.9849
G01 X5.1323 Y-1.0021
G01 X5.1155 Y-1.0113
G01 X5.0827 Y-1.0310
G01 X5.0667 Y-1.0415
G01 X5.0354 Y-1.0635
G01 X5.0052 Y-1.0871
G01 X4.9762 Y-1.1121
G01 X4.9485 Y-1.1385
G01 X4.9221 Y-1.1662
G01 X4.8971 Y-1.1952
G01 X4.8851 Y-1.2101
G01 X4.8623 Y-1.2409
G01 X4.8410 Y-1.2727
G01 X4.8213 Y-1.3055
G01 X4.8033 Y-1.3393
G01 X4.7869 Y-1.3739
G01 X4.7723 Y-1.4093
G01 X4.7594 Y-1.4453
G01 X4.7536 Y-1.4636
G01 X4.7434 Y-1.5005
G01 X4.7350 Y-1.5378
G01 X4.7284 Y-1.5756
G01 X4.7238 Y-1.6135
G01 X4.7209 Y-1.6517
G01 X4.7202 Y-1.6709
G01 X4.7200 Y-2.3595
G01 X2.5095 Y-4.5700
G01 X2.0400 Y-4.5700
G01 X2.0017 Y-4.5709
G01 X1.9527 Y-4.5733
G01 X1.9145 Y-4.5762
G01 X1.8765 Y-4.5809
G01 X1.8091 Y-4.5911
G01 X1.7903 Y-4.5946
G01 X1.7529 Y-4.6030
G01 X1.7053 Y-4.6149
G01 X1.6684 Y-4.6251
G01 X1.6321 Y-4.6371
G01 X1.5679 Y-4.6603
G01 X1.5326 Y-4.6750
G01 X1.4708 Y-4.7039
G01 X1.4366 Y-4.7211
G01 X1.4033 Y-4.7400
G01 X1.3449 Y-4.7753
G01 X1.3131 Y-4.7965
G01 X1.2582 Y-4.8370
G01 X1.2280 Y-4.8605
G01 X1.1990 Y-4.8856
G01 X1.1486 Y-4.9315
G01 X1.1215 Y-4.9586
G01 X1.0756 Y-5.0090
G01 X1.0505 Y-5.0380
G01 X1.0270 Y-5.0682
G01 X0.9865 Y-5.1231
G01 X0.9653 Y-5.1549
G01 X0.9204 Y-5.2298
G01 X0.9023 Y-5.2636
G01 X0.8650 Y-5.3426
G01 X0.8574 Y-5.3602
G01 X0.8437 Y-5.3959
G01 X0.8271 Y-5.4421
G01 X0.8151 Y-5.4784
G01 X0.8049 Y-5.5153
G01 X0.7930 Y-5.5629
G01 X0.7846 Y-5.6003
G01 X0.7811 Y-5.6191
G01 X0.7683 Y-5.7055
G01 X0.7662 Y-5.7245
G01 X0.7633 Y-5.7627
G01 X0.7609 Y-5.8117
G01 X0.7600 Y-5.8500
G01 X0.7600 Y-6.8500
G01 X0.7609 Y-6.8883
G01 X0.7645 Y-6.9564
G01 X0.7662 Y-6.9755
G01 X0.7709 Y-7.0135
G01 X0.7811 Y-7.0809
G01 X0.7886 Y-7.1184
G01 X0.8049 Y-7.1847
G01 X0.8151 Y-7.2216
G01 X0.8271 Y-7.2579
G01 X0.8503 Y-7.3221
G01 X0.8574 Y-7.3398
G01 X0.8729 Y-7.3748
G01 X0.9023 Y-7.4364
G01 X0.9204 Y-7.4702
G01 X0.9552 Y-7.5288
G01 X0.9757 Y-7.5611
G01 X0.9978 Y-7.5924
G01 X1.0270 Y-7.6318
G01 X1.0505 Y-7.6620
G01 X1.0756 Y-7.6910
G01 X1.1085 Y-7.7274
G01 X1.1349 Y-7.7551
G01 X1.1626 Y-7.7815
G01 X1.1990 Y-7.8144
G01 X1.2280 Y-7.8395
G01 X1.2582 Y-7.8630
G01 X1.2976 Y-7.8922
G01 X1.3131 Y-7.9035
G01 X1.3449 Y-7.9247
G01 X1.4198 Y-7.9696
G01 X1.4536 Y-7.9877
G01 X1.5326 Y-8.0250
G01 X1.5679 Y-8.0397
G01 X1.6502 Y-8.0691
G01 X1.6868 Y-8.0802
G01 X1.7716 Y-8.1014
G01 X1.7903 Y-8.1054
G01 X1.8280 Y-8.1120
G01 X1.8955 Y-8.1217
G01 X1.9336 Y-8.1255
G01 X2.0017 Y-8.1291
G01 X2.0400 Y-8.1300
G01 X3.0400 Y-8.1300
G01 X3.0783 Y-8.1291
G01 X3.1464 Y-8.1255
G01 X3.1845 Y-8.1217
G01 X3.2035 Y-8.1191
G01 X3.2520 Y-8.1120
G01 X3.2897 Y-8.1054
G01 X3.3271 Y-8.0970
G01 X3.3747 Y-8.0851
G01 X3.4116 Y-8.0749
G01 X3.4479 Y-8.0629
G01 X3.4941 Y-8.0463
G01 X3.5298 Y-8.0326
G01 X3.5648 Y-8.0171
G01 X3.6092 Y-7.9961
G01 X3.6434 Y-7.9789
G01 X3.6767 Y-7.9600
G01 X3.7188 Y-7.9348
G01 X3.7511 Y-7.9143
G01 X3.7824 Y-7.8922
G01 X3.8371 Y-7.8514
G01 X3.8667 Y-7.8271
G01 X3.9314 Y-7.7685
G01 X3.9585 Y-7.7414
G01 X4.0044 Y-7.6910
G01 X4.0295 Y-7.6620
G01 X4.0530 Y-7.6318
G01 X4.0935 Y-7.5769
G01 X4.1147 Y-7.5451
G01 X4.1500 Y-7.4867
G01 X4.1689 Y-7.4534
G01 X4.1861 Y-7.4192
G01 X4.2071 Y-7.3748
G01 X4.2226 Y-7.3398
G01 X4.2363 Y-7.3041
G01 X4.2591 Y-7.2398
G01 X4.2649 Y-7.2216
G01 X4.2751 Y-7.1847
G01 X4.2914 Y-7.1184
G01 X4.2989 Y-7.0809
G01 X4.3091 Y-7.0135
G01 X4.3138 Y-6.9755
G01 X4.3167 Y-6.9373
G01 X4.3191 Y-6.8883
G01 X4.3200 Y-6.8500
G01 X4.3200 Y-6.3805
G01 X6.5305 Y-4.1700
G01 X7.2000 Y-4.1700
G01 X7.2383 Y-4.1691
G01 X7.2765 Y-4.1662
G01 X7.3144 Y-4.1616
G01 X7.3522 Y-4.1550
G01 X7.3895 Y-4.1466
G01 X7.4080 Y-4.1417
G01 X7.4447 Y-4.1306
G01 X7.4628 Y-4.1244
G01 X7.4985 Y-4.1106
G01 X7.5335 Y-4.0951
G01 X7.5677 Y-4.0779
G01 X7.5845 Y-4.0687
G01 X7.6098 Y-4.0536
G01 X7.6097 Y-4.5700
G01 X7.1609 Y-4.5702
G01 X7.0736 Y-4.5745
G01 X7.0355 Y-4.5783
G01 X7.0165 Y-4.5809
G01 X6.9491 Y-4.5911
G01 X6.9116 Y-4.5986
G01 X6.8268 Y-4.6198
G01 X6.7902 Y-4.6309
G01 X6.7259 Y-4.6537
G01 X6.6902 Y-4.6674
G01 X6.6552 Y-4.6829
G01 X6.6108 Y-4.7039
G01 X6.5766 Y-4.7211
G01 X6.5433 Y-4.7400
G01 X6.5012 Y-4.7652
G01 X6.4689 Y-4.7857
G01 X6.4376 Y-4.8078
G01 X6.3982 Y-4.8370
G01 X6.3680 Y-4.8605
G01 X6.3390 Y-4.8856
G01 X6.3026 Y-4.9185
G01 X6.2749 Y-4.9449
G01 X6.2485 Y-4.9726
G01 X6.2156 Y-5.0090
G01 X6.1905 Y-5.0380
G01 X6.1670 Y-5.0682
G01 X6.1378 Y-5.1076
G01 X6.1157 Y-5.1389
G01 X6.0952 Y-5.1712
G01 X6.0700 Y-5.2133
G01 X6.0511 Y-5.2466
G01 X6.0339 Y-5.2808
G01 X6.0129 Y-5.3252
G01 X5.9974 Y-5.3602
G01 X5.9837 Y-5.3959
G01 X5.9671 Y-5.4421
G01 X5.9551 Y-5.4784
G01 X5.9449 Y-5.5153
G01 X5.9286 Y-5.5816
G01 X5.9246 Y-5.6003
G01 X5.9180 Y-5.6380
G01 X5.9109 Y-5.6865
G01 X5.9062 Y-5.7245
G01 X5.9033 Y-5.7627
G01 X5.9002 Y-5.8309
G01 X5.9002 Y-6.8691
G01 X5.9033 Y-6.9373
G01 X5.9062 Y-6.9755
G01 X5.9109 Y-7.0135
G01 X5.9180 Y-7.0620
G01 X5.9246 Y-7.0997
G01 X5.9330 Y-7.1371
G01 X5.9449 Y-7.1847
G01 X5.9551 Y-7.2216
G01 X5.9671 Y-7.2579
G01 X5.9837 Y-7.3041
G01 X5.9974 Y-7.3398
G01 X6.0129 Y-7.3748
G01 X6.0339 Y-7.4192
G01 X6.0511 Y-7.4534
G01 X6.0700 Y-7.4867
G01 X6.0952 Y-7.5288
G01 X6.1157 Y-7.5611
G01 X6.1378 Y-7.5924
G01 X6.1670 Y-7.6318
G01 X6.1905 Y-7.6620
G01 X6.2156 Y-7.6910
G01 X6.2485 Y-7.7274
G01 X6.2749 Y-7.7551
G01 X6.3026 Y-7.7815
G01 X6.3390 Y-7.8144
G01 X6.3680 Y-7.8395
G01 X6.3982 Y-7.8630
G01 X6.4376 Y-7.8922
G01 X6.4689 Y-7.9143
G01 X6.5012 Y-7.9348
G01 X6.5433 Y-7.9600
G01 X6.5766 Y-7.9789
G01 X6.5936 Y-7.9877
G01 X6.6726 Y-8.0250
G01 X6.6902 Y-8.0326
G01 X6.7259 Y-8.0463
G01 X6.7721 Y-8.0629
G01 X6.8084 Y-8.0749
G01 X6.8453 Y-8.0851
G01 X6.8929 Y-8.0970
G01 X6.9116 Y-8.1014
G01 X6.9491 Y-8.1089
G01 X7.0355 Y-8.1217
G01 X7.0736 Y-8.1255
G01 X7.0927 Y-8.1267
G01 X7.1417 Y-8.1291
G01 X7.1800 Y-8.1300
G01 X8.1800 Y-8.1300
G01 X8.2183 Y-8.1291
G01 X8.2864 Y-8.1255
G01 X8.3245 Y-8.1217
G01 X8.3435 Y-8.1191
G01 X8.4109 Y-8.1089
G01 X8.4484 Y-8.1014
G01 X8.5147 Y-8.0851
G01 X8.5516 Y-8.0749
G01 X8.5879 Y-8.0629
G01 X8.6521 Y-8.0397
G01 X8.6874 Y-8.0250
G01 X8.7492 Y-7.9961
G01 X8.7834 Y-7.9789
G01 X8.8167 Y-7.9600
G01 X8.8751 Y-7.9247
G01 X8.9069 Y-7.9035
G01 X8.9618 Y-7.8630
G01 X8.9920 Y-7.8395
G01 X9.0210 Y-7.8144
G01 X9.0574 Y-7.7815
G01 X9.0714 Y-7.7685
G01 X9.0985 Y-7.7414
G01 X9.1571 Y-7.6767
G01 X9.1814 Y-7.6471
G01 X9.1930 Y-7.6318
G01 X9.2222 Y-7.5924
G01 X9.2443 Y-7.5611
G01 X9.2648 Y-7.5288
G01 X9.2996 Y-7.4702
G01 X9.3089 Y-7.4534
G01 X9.3261 Y-7.4192
G01 X9.3550 Y-7.3574
G01 X9.3697 Y-7.3221
G01 X9.3929 Y-7.2579
G01 X9.4049 Y-7.2216
G01 X9.4151 Y-7.1847
G01 X9.4270 Y-7.1371
G01 X9.4354 Y-7.0997
G01 X9.4420 Y-7.0620
G01 X9.4517 Y-6.9945
G01 X9.4555 Y-6.9564
G01 X9.4598 Y-6.8691
G01 X9.4600 Y-6.3805
G01 X9.7953 Y-6.0453
G01 X9.8217 Y-6.0175
G01 X9.8673 Y-5.9668
G01 X9.8916 Y-5.9372
G01 X9.9437 Y-5.8671
G01 X9.9649 Y-5.8352
G01 X10.0098 Y-5.7603
G01 X10.0279 Y-5.7265
G01 X10.0363 Y-5.7093
G01 X10.0573 Y-5.6649
G01 X10.0728 Y-5.6299
G01 X10.0866 Y-5.5942
G01 X10.1031 Y-5.5480
G01 X10.1151 Y-5.5116
G01 X10.1205 Y-5.4933
G01 X10.1417 Y-5.4085
G01 X10.1492 Y-5.3709
G01 X10.1522 Y-5.3520
G01 X10.1594 Y-5.3035
G01 X10.1640 Y-5.2663
G01 X10.1708 Y-5.3109
G01 X10.1783 Y-5.3485
G01 X10.1995 Y-5.4333
G01 X10.2107 Y-5.4699
G01 X10.2401 Y-5.5522
G01 X10.2547 Y-5.5875
G01 X10.2627 Y-5.6049
G01 X10.2837 Y-5.6493
G01 X10.3009 Y-5.6835
G01 X10.3198 Y-5.7168
G01 X10.3450 Y-5.7589
G01 X10.3655 Y-5.7913
G01 X10.3876 Y-5.8226
G01 X10.4168 Y-5.8620
G01 X10.4404 Y-5.8922
G01 X10.4654 Y-5.9212
G01 X10.5114 Y-5.9716
G01 X10.9200 Y-6.3805
G01 X10.9200 Y-6.8500
G01 X10.9209 Y-6.8883
G01 X10.9245 Y-6.9564
G01 X10.9283 Y-6.9945
G01 X10.9309 Y-7.0135
G01 X10.9380 Y-7.0620
G01 X10.9446 Y-7.0997
G01 X10.9530 Y-7.1371
G01 X10.9649 Y-7.1847
G01 X10.9751 Y-7.2216
G01 X10.9809 Y-7.2398
G01 X11.0037 Y-7.3041
G01 X11.0174 Y-7.3398
G01 X11.0329 Y-7.3748
G01 X11.0539 Y-7.4192
G01 X11.0711 Y-7.4534
G01 X11.0804 Y-7.4702
G01 X11.1152 Y-7.5288
G01 X11.1357 Y-7.5611
G01 X11.1578 Y-7.5924
G01 X11.1986 Y-7.6471
G01 X11.2229 Y-7.6767
G01 X11.2685 Y-7.7274
G01 X11.2949 Y-7.7551
G01 X11.3086 Y-7.7685
G01 X11.3590 Y-7.8144
G01 X11.3880 Y-7.8395
G01 X11.4182 Y-7.8630
G01 X11.4731 Y-7.9035
G01 X11.5049 Y-7.9247
G01 X11.5633 Y-7.9600
G01 X11.5798 Y-7.9696
G01 X11.6136 Y-7.9877
G01 X11.6752 Y-8.0171
G01 X11.7102 Y-8.0326
G01 X11.7459 Y-8.0463
G01 X11.8102 Y-8.0691
G01 X11.8284 Y-8.0749
G01 X11.8653 Y-8.0851
G01 X11.9316 Y-8.1014
G01 X11.9691 Y-8.1089
G01 X12.0365 Y-8.1191
G01 X12.0745 Y-8.1238
G01 X12.1127 Y-8.1267
G01 X12.1617 Y-8.1291
G01 X12.2000 Y-8.1300
G01 X13.2191 Y-8.1298
G01 X13.2873 Y-8.1267
G01 X13.3255 Y-8.1238
G01 X13.3635 Y-8.1191
G01 X13.4309 Y-8.1089
G01 X13.4497 Y-8.1054
G01 X13.4871 Y-8.0970
G01 X13.5532 Y-8.0802
G01 X13.5898 Y-8.0691
G01 X13.6721 Y-8.0397
G01 X13.7074 Y-8.0250
G01 X13.7248 Y-8.0171
G01 X13.7692 Y-7.9961
G01 X13.8034 Y-7.9789
G01 X13.8367 Y-7.9600
G01 X13.8788 Y-7.9348
G01 X13.8951 Y-7.9247
G01 X13.9269 Y-7.9035
G01 X13.9971 Y-7.8514
G01 X14.0120 Y-7.8395
G01 X14.0410 Y-7.8144
G01 X14.0774 Y-7.7815
G01 X14.1051 Y-7.7551
G01 X14.1315 Y-7.7274
G01 X14.1644 Y-7.6910
G01 X14.1895 Y-7.6620
G01 X14.2130 Y-7.6318
G01 X14.2422 Y-7.5924
G01 X14.2535 Y-7.5769
G01 X14.2747 Y-7.5451
G01 X14.3196 Y-7.4702
G01 X14.3289 Y-7.4534
G01 X14.3461 Y-7.4192
G01 X14.3671 Y-7.3748
G01 X14.3826 Y-7.3398
G01 X14.3963 Y-7.3041
G01 X14.4129 Y-7.2579
G01 X14.4249 Y-7.2216
G01 X14.4351 Y-7.1847
G01 X14.4514 Y-7.1184
G01 X14.4589 Y-7.0809
G01 X14.4691 Y-7.0135
G01 X14.4738 Y-6.9755
G01 X14.4767 Y-6.9373
G01 X14.4798 Y-6.8691
G01 X14.4798 Y-5.8309
G01 X14.4767 Y-5.7627
G01 X14.4738 Y-5.7245
G01 X14.4691 Y-5.6865
G01 X14.4620 Y-5.6380
G01 X14.4554 Y-5.6003
G01 X14.4470 Y-5.5629
G01 X14.4351 Y-5.5153
G01 X14.4249 Y-5.4784
G01 X14.4129 Y-5.4421
G01 X14.3963 Y-5.3959
G01 X14.3826 Y-5.3602
G01 X14.3671 Y-5.3252
G01 X14.3461 Y-5.2808
G01 X14.3289 Y-5.2466
G01 X14.3100 Y-5.2133
G01 X14.2848 Y-5.1712
G01 X14.2643 Y-5.1389
G01 X14.2535 Y-5.1231
G01 X14.2014 Y-5.0529
G01 X14.1771 Y-5.0233
G01 X14.1185 Y-4.9586
G01 X14.0914 Y-4.9315
G01 X14.0267 Y-4.8729
G01 X13.9971 Y-4.8486
G01 X13.9269 Y-4.7965
G01 X13.9111 Y-4.7857
G01 X13.8788 Y-4.7652
G01 X13.8202 Y-4.7304
G01 X13.7864 Y-4.7123
G01 X13.7074 Y-4.6750
G01 X13.6721 Y-4.6603
G01 X13.5898 Y-4.6309
G01 X13.5532 Y-4.6198
G01 X13.4684 Y-4.5986
G01 X13.4309 Y-4.5911
G01 X13.3635 Y-4.5809
G01 X13.3255 Y-4.5762
G01 X13.2873 Y-4.5733
G01 X13.2191 Y-4.5702
G01 X12.7305 Y-4.5700
G01 X12.7102 Y-4.5497
G01 X12.7103 Y-3.5744
G01 X12.7350 Y-3.6031
G01 X12.7910 Y-3.6649
G01 X12.8174 Y-3.6926
G01 X12.8451 Y-3.7190
G01 X12.9069 Y-3.7750
G01 X12.9359 Y-3.8000
G01 X12.9661 Y-3.8236
G01 X13.0331 Y-3.8733
G01 X13.0644 Y-3.8953
G01 X13.0968 Y-3.9158
G01 X13.1683 Y-3.9587
G01 X13.2016 Y-3.9775
G01 X13.2358 Y-3.9947
G01 X13.3112 Y-4.0304
G01 X13.3462 Y-4.0459
G01 X13.3819 Y-4.0597
G01 X13.4605 Y-4.0878
G01 X13.4968 Y-4.0998
G01 X13.5337 Y-4.1100
G01 X13.6146 Y-4.1303
G01 X13.6520 Y-4.1387
G01 X13.6897 Y-4.1452
G01 X13.7777 Y-4.1582
G01 X16.0000 Y-6.3805
G01 X16.0000 Y-6.8500
G01 X16.0009 Y-6.8883
G01 X16.0033 Y-6.9373
G01 X16.0062 Y-6.9755
G01 X16.0109 Y-7.0135
G01 X16.0211 Y-7.0809
G01 X16.0286 Y-7.1184
G01 X16.0330 Y-7.1371
G01 X16.0449 Y-7.1847
G01 X16.0551 Y-7.2216
G01 X16.0671 Y-7.2579
G01 X16.0903 Y-7.3221
G01 X16.1050 Y-7.3574
G01 X16.1339 Y-7.4192
G01 X16.1511 Y-7.4534
G01 X16.1700 Y-7.4867
G01 X16.2053 Y-7.5451
G01 X16.2265 Y-7.5769
G01 X16.2670 Y-7.6318
G01 X16.2905 Y-7.6620
G01 X16.3156 Y-7.6910
G01 X16.3485 Y-7.7274
G01 X16.3749 Y-7.7551
G01 X16.4026 Y-7.7815
G01 X16.4533 Y-7.8271
G01 X16.4829 Y-7.8514
G01 X16.5376 Y-7.8922
G01 X16.5689 Y-7.9143
G01 X16.6012 Y-7.9348
G01 X16.6433 Y-7.9600
G01 X16.6766 Y-7.9789
G01 X16.7108 Y-7.9961
G01 X16.7552 Y-8.0171
G01 X16.7726 Y-8.0250
G01 X16.8079 Y-8.0397
G01 X16.8902 Y-8.0691
G01 X16.9084 Y-8.0749
G01 X16.9453 Y-8.0851
G01 X16.9929 Y-8.0970
G01 X17.0303 Y-8.1054
G01 X17.0680 Y-8.1120
G01 X17.1165 Y-8.1191
G01 X17.1545 Y-8.1238
G01 X17.1927 Y-8.1267
G01 X17.2417 Y-8.1291
G01 X17.2800 Y-8.1300
G01 X18.2800 Y-8.1300
G01 X18.3183 Y-8.1291
G01 X18.3864 Y-8.1255
G01 X18.4055 Y-8.1238
G01 X18.4435 Y-8.1191
G01 X18.5109 Y-8.1089
G01 X18.5297 Y-8.1054
G01 X18.5671 Y-8.0970
G01 X18.6147 Y-8.0851
G01 X18.6516 Y-8.0749
G01 X18.6879 Y-8.0629
G01 X18.7341 Y-8.0463
G01 X18.7521 Y-8.0397
G01 X18.7874 Y-8.0250
G01 X18.8664 Y-7.9877
G01 X18.9002 Y-7.9696
G01 X18.9751 Y-7.9247
G01 X18.9911 Y-7.9143
G01 X19.0224 Y-7.8922
G01 X19.0618 Y-7.8630
G01 X19.0920 Y-7.8395
G01 X19.1210 Y-7.8144
G01 X19.1574 Y-7.7815
G01 X19.1851 Y-7.7551
G01 X19.2115 Y-7.7274
G01 X19.2444 Y-7.6910
G01 X19.2695 Y-7.6620
G01 X19.2930 Y-7.6318
G01 X19.3222 Y-7.5924
G01 X19.3443 Y-7.5611
G01 X19.3648 Y-7.5288
G01 X19.3900 Y-7.4867
G01 X19.3996 Y-7.4702
G01 X19.4177 Y-7.4364
G01 X19.4550 Y-7.3574
G01 X19.4697 Y-7.3221
G01 X19.4763 Y-7.3041
G01 X19.4929 Y-7.2579
G01 X19.5049 Y-7.2216
G01 X19.5151 Y-7.1847
G01 X19.5270 Y-7.1371
G01 X19.5314 Y-7.1184
G01 X19.5389 Y-7.0809
G01 X19.5517 Y-6.9945
G01 X19.5538 Y-6.9755
G01 X19.5567 Y-6.9373
G01 X19.5591 Y-6.8883
G01 X19.5600 Y-6.8500
G01 X19.5600 Y-5.8500
G01 X19.5591 Y-5.8117
G01 X19.5555 Y-5.7436
G01 X19.5538 Y-5.7245
G01 X19.5491 Y-5.6865
G01 X19.5389 Y-5.6191
G01 X19.5314 Y-5.5816
G01 X19.5151 Y-5.5153
G01 X19.5049 Y-5.4784
G01 X19.4929 Y-5.4421
G01 X19.4697 Y-5.3779
G01 X19.4550 Y-5.3426
G01 X19.4261 Y-5.2808
G01 X19.4089 Y-5.2466
G01 X19.3900 Y-5.2133
G01 X19.3547 Y-5.1549
G01 X19.3335 Y-5.1231
G01 X19.2930 Y-5.0682
G01 X19.2695 Y-5.0380
G01 X19.2444 Y-5.0090
G01 X19.1985 Y-4.9586
G01 X19.1714 Y-4.9315
G01 X19.1574 Y-4.9185
G01 X19.1067 Y-4.8729
G01 X19.0771 Y-4.8486
G01 X19.0224 Y-4.8078
G01 X18.9911 Y-4.7857
G01 X18.9588 Y-4.7652
G01 X18.9002 Y-4.7304
G01 X18.8664 Y-4.7123
G01 X18.8048 Y-4.6829
G01 X18.7698 Y-4.6674
G01 X18.7341 Y-4.6537
G01 X18.6879 Y-4.6371
G01 X18.6516 Y-4.6251
G01 X18.6147 Y-4.6149
G01 X18.5484 Y-4.5986
G01 X18.5297 Y-4.5946
G01 X18.4920 Y-4.5880
G01 X18.4435 Y-4.5809
G01 X18.4055 Y-4.5762
G01 X18.3673 Y-4.5733
G01 X18.3183 Y-4.5709
G01 X18.2800 Y-4.5700
G01 X17.8105 Y-4.5700
G01 X15.5882 Y-2.3477
G01 X15.5722 Y-2.2408
G01 X15.5647 Y-2.2033
G01 X15.5351 Y-2.0852
G01 X15.5298 Y-2.0668
G01 X15.5178 Y-2.0305
G01 X15.4830 Y-1.9340
G01 X15.4684 Y-1.8986
G01 X15.4604 Y-1.8812
G01 X15.4247 Y-1.8058
G01 X15.4075 Y-1.7716
G01 X15.3887 Y-1.7383
G01 X15.3458 Y-1.6668
G01 X15.3357 Y-1.6505
G01 X15.3145 Y-1.6186
G01 X15.2420 Y-1.5209
G01 X15.2177 Y-1.4913
G01 X15.2050 Y-1.4769
G01 X15.1360 Y-1.4011
G01 X15.1089 Y-1.3740
G01 X15.0949 Y-1.3610
G01 X15.0331 Y-1.3050
G01 X15.0041 Y-1.2800
G01 X14.9739 Y-1.2564
G01 X14.9069 Y-1.2067
G01 X14.8756 Y-1.1847
G01 X14.8432 Y-1.1642
G01 X14.7717 Y-1.1213
G01 X14.7384 Y-1.1025
G01 X14.7042 Y-1.0853
G01 X14.6288 Y-1.0496
G01 X14.5938 Y-1.0341
G01 X14.5581 Y-1.0203
G01 X14.4795 Y-0.9922
G01 X14.4432 Y-0.9802
G01 X14.4063 Y-0.9700
G01 X14.3254 Y-0.9497
G01 X14.2880 Y-0.9413
G01 X14.2503 Y-0.9348
G01 X14.1678 Y-0.9225
G01 X14.1298 Y-0.9178
G01 X14.0916 Y-0.9150
G01 X14.0083 Y-0.9109
G01 X13.9700 Y-0.9100
G01 X13.9317 Y-0.9109
G01 X13.8484 Y-0.9150
G01 X13.8102 Y-0.9178
G01 X13.7722 Y-0.9225
G01 X13.6897 Y-0.9348
G01 X13.6520 Y-0.9413
G01 X13.6146 Y-0.9497
G01 X13.5152 Y-0.9749
G01 X13.4786 Y-0.9860
G01 X13.4605 Y-0.9922
G01 X13.3640 Y-1.0270
G01 X13.3286 Y-1.0416
G01 X13.2186 Y-1.0937
G01 X13.1849 Y-1.1117
G01 X13.1683 Y-1.1213
G01 X13.0805 Y-1.1743
G01 X13.0486 Y-1.1955
G01 X12.9661 Y-1.2564
G01 X12.9359 Y-1.2800
G01 X12.9213 Y-1.2923
G01 X12.8451 Y-1.3610
G01 X12.8174 Y-1.3874
G01 X12.7910 Y-1.4151
G01 X12.7350 Y-1.4769
G01 X12.7223 Y-1.4913
G01 X12.7000 Y-1.5184
G01 X12.6777 Y-1.4913
G01 X12.6650 Y-1.4769
G01 X12.6090 Y-1.4151
G01 X12.5826 Y-1.3874
G01 X12.5549 Y-1.3610
G01 X12.4787 Y-1.2923
G01 X12.4491 Y-1.2680
G01 X12.4339 Y-1.2564
G01 X12.3669 Y-1.2067
G01 X12.3356 Y-1.1847
G01 X12.3032 Y-1.1642
G01 X12.2317 Y-1.1213
G01 X12.1984 Y-1.1025
G01 X12.1814 Y-1.0937
G01 X12.0888 Y-1.0496
G01 X12.0538 Y-1.0341
G01 X12.0181 Y-1.0203
G01 X11.9395 Y-0.9922
G01 X11.9214 Y-0.9860
G01 X11.8848 Y-0.9749
G01 X11.7667 Y-0.9453
G01 X11.7292 Y-0.9378
G01 X11.7103 Y-0.9348
G01 X11.6278 Y-0.9225
G01 X11.5898 Y-0.9178
G01 X11.5516 Y-0.9150
G01 X11.4683 Y-0.9109
G01 X11.4491 Y-0.9102
G01 X11.4109 Y-0.9102
G01 X11.2893 Y-0.9162
G01 X11.2512 Y-0.9200
G01 X11.2322 Y-0.9225
G01 X11.1497 Y-0.9348
G01 X11.1120 Y-0.9413
G01 X11.0746 Y-0.9497
G01 X10.9937 Y-0.9700
G01 X10.9568 Y-0.9802
G01 X10.9205 Y-0.9922
G01 X10.8419 Y-1.0203
G01 X10.8062 Y-1.0341
G01 X10.7712 Y-1.0496
G01 X10.6958 Y-1.0853
G01 X10.6616 Y-1.1025
G01 X10.6283 Y-1.1213
G01 X10.5568 Y-1.1642
G01 X10.5244 Y-1.1847
G01 X10.4931 Y-1.2067
G01 X10.4261 Y-1.2564
G01 X10.3959 Y-1.2800
G01 X10.3669 Y-1.3050
G01 X10.3051 Y-1.3610
G01 X10.2774 Y-1.3874
G01 X10.2510 Y-1.4151
G01 X10.1950 Y-1.4769
G01 X10.1700 Y-1.5059
G00 Z1.0000
G00 X13.5657 Y-3.5036
G01 F60.00
G01 Z-0.0450
G01 F150.00
G01 X13.5790 Y-3.5089
G01 X13.6667 Y-3.5400
G01 X13.7568 Y-3.5628
G01 X13.7708 Y-3.5658
G01 X13.8581 Y-3.5788
G01 X13.8723 Y-3.5804
G01 X13.9652 Y-3.5849
G01 X13.9796 Y-3.5848
G01 X14.0291 Y-3.5823
G01 X16.5850 Y-6.1382
G01 X16.5851 Y-6.8548
G01 X16.5883 Y-6.9181
G01 X16.5967 Y-6.9762
G01 X16.5993 Y-6.9903
G01 X16.6149 Y-7.0517
G01 X16.6379 Y-7.1160
G01 X16.6671 Y-7.1776
G01 X16.7021 Y-7.2361
G01 X16.7428 Y-7.2909
G01 X16.7886 Y-7.3414
G01 X16.8391 Y-7.3872
G01 X16.8899 Y-7.4252
G01 X16.9020 Y-7.4330
G01 X16.9524 Y-7.4629
G01 X17.0053 Y-7.4882
G01 X17.0230 Y-7.4955
G01 X17.0783 Y-7.5151
G01 X17.1351 Y-7.5295
G01 X17.1538 Y-7.5333
G01 X17.2024 Y-7.5405
G01 X17.2166 Y-7.5421
G01 X17.2800 Y-7.5450
G01 X18.2800 Y-7.5450
G01 X18.3481 Y-7.5417
G01 X18.4156 Y-7.5316
G01 X18.4817 Y-7.5151
G01 X18.5460 Y-7.4921
G01 X18.5991 Y-7.4672
G01 X18.6159 Y-7.4582
G01 X18.6621 Y-7.4305
G01 X18.6739 Y-7.4224
G01 X18.7209 Y-7.3872
G01 X18.7645 Y-7.3480
G01 X18.7780 Y-7.3345
G01 X18.8172 Y-7.2909
G01 X18.8552 Y-7.2401
G01 X18.8630 Y-7.2280
G01 X18.8929 Y-7.1776
G01 X18.9182 Y-7.1247
G01 X18.9255 Y-7.1070
G01 X18.9451 Y-7.0517
G01 X18.9595 Y-6.9949
G01 X18.9633 Y-6.9762
G01 X18.9705 Y-6.9276
G01 X18.9721 Y-6.9134
G01 X18.9750 Y-6.8500
G01 X18.9749 Y-5.8452
G01 X18.9717 Y-5.7819
G01 X18.9633 Y-5.7238
G01 X18.9595 Y-5.7051
G01 X18.9464 Y-5.6528
G01 X18.9421 Y-5.6392
G01 X18.9221 Y-5.5840
G01 X18.8929 Y-5.5224
G01 X18.8579 Y-5.4639
G01 X18.8202 Y-5.4128
G01 X18.8110 Y-5.4018
G01 X18.7714 Y-5.3586
G01 X18.7282 Y-5.3190
G01 X18.7172 Y-5.3098
G01 X18.6739 Y-5.2776
G01 X18.6580 Y-5.2670
G01 X18.6076 Y-5.2371
G01 X18.5460 Y-5.2079
G01 X18.4817 Y-5.1849
G01 X18.4156 Y-5.1684
G01 X18.3481 Y-5.1583
G01 X18.2848 Y-5.1551
G01 X17.5682 Y-5.1550
G01 X15.0123 Y-2.5991
G01 X15.0148 Y-2.5496
G01 X15.0149 Y-2.5352
G01 X15.0107 Y-2.4471
G01 X15.0094 Y-2.4328
G01 X14.9949 Y-2.3361
G01 X14.9713 Y-2.2412
G01 X14.9670 Y-2.2276
G01 X14.9389 Y-2.1490
G01 X14.9316 Y-2.1313
G01 X14.8916 Y-2.0474
G01 X14.8415 Y-1.9634
G01 X14.8334 Y-1.9516
G01 X14.7837 Y-1.8846
G01 X14.7715 Y-1.8698
G01 X14.7089 Y-1.8011
G01 X14.6329 Y-1.7322
G01 X14.5584 Y-1.6766
G01 X14.5425 Y-1.6660
G01 X14.4626 Y-1.6184
G01 X14.3699 Y-1.5745
G01 X14.2733 Y-1.5400
G01 X14.1739 Y-1.5151
G01 X14.0724 Y-1.5000
G01 X13.9700 Y-1.4950
G01 X13.8676 Y-1.5000
G01 X13.7661 Y-1.5151
G01 X13.6667 Y-1.5400
G01 X13.5701 Y-1.5745
G01 X13.4774 Y-1.6184
G01 X13.3894 Y-1.6711
G01 X13.3071 Y-1.7322
G01 X13.2311 Y-1.8011
G01 X13.1622 Y-1.8771
G01 X13.1011 Y-1.9594
G01 X13.0484 Y-2.0474
G01 X13.0045 Y-2.1401
G01 X12.9700 Y-2.2367
G01 X12.9451 Y-2.3361
G01 X12.9300 Y-2.4376
G01 X12.9250 Y-2.5400
G01 X12.9300 Y-2.6424
G01 X12.9451 Y-2.7439
G01 X12.9700 Y-2.8433
G01 X13.0045 Y-2.9399
G01 X13.0484 Y-3.0326
G01 X13.1011 Y-3.1206
G01 X13.1622 Y-3.2029
G01 X13.2311 Y-3.2789
G01 X13.3071 Y-3.3478
G01 X13.3894 Y-3.4089
G01 X13.4774 Y-3.4616
G01 X13.5657 Y-3.5036
G00 Z1.0000
G00 X10.7150 Y-15.6304
G01 F60.00
G01 Z-0.0450
G01 F150.00
G01 X10.7147 Y-17.0012
G01 X10.6780 Y-17.0345
G01 X10.6677 Y-17.0445
G01 X10.6053 Y-17.1134
G01 X10.5963 Y-17.1246
G01 X10.5466 Y-17.1916
G01 X10.5385 Y-17.2034
G01 X10.4884 Y-17.2874
G01 X10.4484 Y-17.3713
G01 X10.4411 Y-17.3890
G01 X10.4130 Y-17.4676
G01 X10.4087 Y-17.4812
G01 X10.3851 Y-17.5761
G01 X10.3712 Y-17.6681
G01 X10.3693 Y-17.6871
G01 X10.3650 Y-17.7800
G01 X10.3700 Y-17.8824
G01 X10.3834 Y-17.9744
G01 X10.3872 Y-17.9932
G01 X10.4074 Y-18.0741
G01 X10.4114 Y-18.0879
G01 X10.4445 Y-18.1799
G01 X10.4884 Y-18.2726
G01 X10.5411 Y-18.3606
G01 X10.6022 Y-18.4429
G01 X10.6711 Y-18.5189
G01 X10.7471 Y-18.5878
G01 X10.8294 Y-18.6489
G01 X10.9174 Y-18.7016
G01 X11.0101 Y-18.7455
G01 X11.1067 Y-18.7800
G01 X11.2061 Y-18.8049
G01 X11.3076 Y-18.8200
G01 X11.4100 Y-18.8250
G01 X11.5124 Y-18.8200
G01 X11.6139 Y-18.8049
G01 X11.7041 Y-18.7826
G01 X11.7179 Y-18.7786
G01 X11.8099 Y-18.7455
G01 X11.8941 Y-18.7059
G01 X11.9109 Y-18.6969
G01 X11.9906 Y-18.6489
G01 X12.0729 Y-18.5878
G01 X12.1420 Y-18.5255
G01 X12.1555 Y-18.5120
G01 X12.2178 Y-18.4429
G01 X12.2789 Y-18.3606
G01 X12.3269 Y-18.2809
G01 X12.3359 Y-18.2641
G01 X12.3755 Y-18.1799
G01 X12.4070 Y-18.0924
G01 X12.4126 Y-18.0741
G01 X12.4349 Y-17.9839
G01 X12.4488 Y-17.8919
G01 X12.4507 Y-17.8729
G01 X12.4550 Y-17.7800
G01 X12.4507 Y-17.6871
G01 X12.4488 Y-17.6681
G01 X12.4349 Y-17.5761
G01 X12.4126 Y-17.4859
G01 X12.4070 Y-17.4676
G01 X12.3772 Y-17.3845
G01 X12.3716 Y-17.3713
G01 X12.3316 Y-17.2874
G01 X12.2840 Y-17.2075
G01 X12.2762 Y-17.1955
G01 X12.2237 Y-17.1246
G01 X12.2147 Y-17.1134
G01 X12.1523 Y-17.0445
G01 X12.1420 Y-17.0345
G01 X12.1053 Y-17.0012
G01 X12.1053 Y-15.9280
G01 X12.4882 Y-15.5450
G01 X13.2048 Y-15.5449
G01 X13.2681 Y-15.5417
G01 X13.3262 Y-15.5333
G01 X13.3449 Y-15.5295
G01 X13.4017 Y-15.5151
G01 X13.4660 Y-15.4921
G01 X13.5276 Y-15.4629
G01 X13.5861 Y-15.4279
G01 X13.6409 Y-15.3872
G01 X13.6914 Y-15.3414
G01 X13.7372 Y-15.2909
G01 X13.7779 Y-15.2361
G01 X13.8082 Y-15.1859
G01 X13.8172 Y-15.1691
G01 X13.8421 Y-15.1160
G01 X13.8621 Y-15.0608
G01 X13.8676 Y-15.0425
G01 X13.8816 Y-14.9856
G01 X13.8905 Y-14.9276
G01 X13.8921 Y-14.9134
G01 X13.8950 Y-14.8500
G01 X13.8950 Y-13.8500
G01 X13.8924 Y-13.7914
G01 X13.8905 Y-13.7724
G01 X13.8816 Y-13.7144
G01 X13.8651 Y-13.6483
G01 X13.8421 Y-13.5840
G01 X13.8172 Y-13.5309
G01 X13.8082 Y-13.5141
G01 X13.7830 Y-13.4720
G01 X13.7752 Y-13.4599
G01 X13.7372 Y-13.4091
G01 X13.6980 Y-13.3655
G01 X13.6845 Y-13.3520
G01 X13.6409 Y-13.3128
G01 X13.5939 Y-13.2776
G01 X13.5821 Y-13.2695
G01 X13.5359 Y-13.2418
G01 X13.5191 Y-13.2328
G01 X13.4660 Y-13.2079
G01 X13.4017 Y-13.1849
G01 X13.3356 Y-13.1684
G01 X13.2681 Y-13.1583
G01 X13.2000 Y-13.1550
G01 X12.2000 Y-13.1550
G01 X12.1366 Y-13.1579
G01 X12.1224 Y-13.1595
G01 X12.0644 Y-13.1684
G01 X12.0075 Y-13.1824
G01 X11.9892 Y-13.1879
G01 X11.9340 Y-13.2079
G01 X11.8809 Y-13.2328
G01 X11.8641 Y-13.2418
G01 X11.8220 Y-13.2670
G01 X11.8099 Y-13.2748
G01 X11.7591 Y-13.3128
G01 X11.7086 Y-13.3586
G01 X11.6628 Y-13.4091
G01 X11.6221 Y-13.4639
G01 X11.5871 Y-13.5224
G01 X11.5579 Y-13.5840
G01 X11.5349 Y-13.6483
G01 X11.5193 Y-13.7097
G01 X11.5167 Y-13.7238
G01 X11.5083 Y-13.7819
G01 X11.5051 Y-13.8452
G01 X11.5050 Y-14.5618
G01 X10.9184 Y-15.1484
G01 X10.8726 Y-15.1989
G01 X10.8374 Y-15.2459
G01 X10.8293 Y-15.2578
G01 X10.8016 Y-15.3039
G01 X10.7925 Y-15.3208
G01 X10.7677 Y-15.3739
G01 X10.7461 Y-15.4336
G01 X10.7421 Y-15.4474
G01 X10.7302 Y-15.4950
G01 X10.7265 Y-15.5138
G01 X10.7181 Y-15.5719
G01 X10.7150 Y-15.6304
G00 Z1.0000
G00 X6.9096 Y-15.4902
G01 F60.00
G01 Z-0.0450
G01 F150.00
G01 X6.9230 Y-15.4955
G01 X6.9783 Y-15.5151
G01 X7.0351 Y-15.5295
G01 X7.0538 Y-15.5333
G01 X7.1071 Y-15.5411
G01 X7.1214 Y-15.5424
G01 X7.1800 Y-15.5450
G01 X7.8918 Y-15.5450
G01 X8.1747 Y-15.8280
G01 X8.1747 Y-17.0012
G01 X8.1380 Y-17.0345
G01 X8.1277 Y-17.0445
G01 X8.0653 Y-17.1134
G01 X8.0563 Y-17.1246
G01 X8.0038 Y-17.1955
G01 X7.9960 Y-17.2075
G01 X7.9484 Y-17.2874
G01 X7.9064 Y-17.3757
G01 X7.9011 Y-17.3890
G01 X7.8700 Y-17.4767
G01 X7.8451 Y-17.5761
G01 X7.8300 Y-17.6776
G01 X7.8252 Y-17.7704
G01 X7.8252 Y-17.7896
G01 X7.8293 Y-17.8729
G01 X7.8312 Y-17.8919
G01 X7.8451 Y-17.9839
G01 X7.8674 Y-18.0741
G01 X7.8730 Y-18.0924
G01 X7.9045 Y-18.1799
G01 X7.9484 Y-18.2726
G01 X8.0011 Y-18.3606
G01 X8.0563 Y-18.4354
G01 X8.0653 Y-18.4466
G01 X8.1311 Y-18.5189
G01 X8.2071 Y-18.5878
G01 X8.2894 Y-18.6489
G01 X8.3774 Y-18.7016
G01 X8.4701 Y-18.7455
G01 X8.5667 Y-18.7800
G01 X8.6661 Y-18.8049
G01 X8.7676 Y-18.8200
G01 X8.8700 Y-18.8250
G01 X8.9724 Y-18.8200
G01 X9.0739 Y-18.8049
G01 X9.1733 Y-18.7800
G01 X9.2699 Y-18.7455
G01 X9.3626 Y-18.7016
G01 X9.4506 Y-18.6489
G01 X9.5254 Y-18.5937
G01 X9.5366 Y-18.5847
G01 X9.6089 Y-18.5189
G01 X9.6715 Y-18.4502
G01 X9.6837 Y-18.4354
G01 X9.7389 Y-18.3606
G01 X9.7869 Y-18.2809
G01 X9.7959 Y-18.2641
G01 X9.8316 Y-18.1887
G01 X9.8389 Y-18.1710
G01 X9.8700 Y-18.0833
G01 X9.8949 Y-17.9839
G01 X9.9100 Y-17.8824
G01 X9.9150 Y-17.7800
G01 X9.9100 Y-17.6776
G01 X9.8949 Y-17.5761
G01 X9.8700 Y-17.4767
G01 X9.8389 Y-17.3890
G01 X9.8336 Y-17.3757
G01 X9.7916 Y-17.2874
G01 X9.7440 Y-17.2075
G01 X9.7362 Y-17.1955
G01 X9.6837 Y-17.1246
G01 X9.6747 Y-17.1134
G01 X9.6123 Y-17.0445
G01 X9.6020 Y-17.0345
G01 X9.5653 Y-17.0012
G01 X9.5653 Y-15.5400
G01 X9.5619 Y-15.4719
G01 X9.5528 Y-15.4091
G01 X9.5498 Y-15.3950
G01 X9.5353 Y-15.3382
G01 X9.5158 Y-15.2829
G01 X9.5084 Y-15.2652
G01 X9.4832 Y-15.2123
G01 X9.4532 Y-15.1618
G01 X9.4426 Y-15.1459
G01 X9.4104 Y-15.1027
G01 X9.4012 Y-15.0917
G01 X9.3616 Y-15.0484
G01 X8.8750 Y-14.5618
G01 X8.8749 Y-13.8452
G01 X8.8717 Y-13.7819
G01 X8.8616 Y-13.7144
G01 X8.8451 Y-13.6483
G01 X8.8221 Y-13.5840
G01 X8.7929 Y-13.5224
G01 X8.7630 Y-13.4720
G01 X8.7524 Y-13.4561
G01 X8.7202 Y-13.4128
G01 X8.7110 Y-13.4018
G01 X8.6714 Y-13.3586
G01 X8.6282 Y-13.3190
G01 X8.6172 Y-13.3098
G01 X8.5661 Y-13.2721
G01 X8.5159 Y-13.2418
G01 X8.4991 Y-13.2328
G01 X8.4460 Y-13.2079
G01 X8.3908 Y-13.1879
G01 X8.3725 Y-13.1824
G01 X8.3156 Y-13.1684
G01 X8.2481 Y-13.1583
G01 X8.1800 Y-13.1550
G01 X7.1800 Y-13.1550
G01 X7.1214 Y-13.1576
G01 X7.1024 Y-13.1595
G01 X7.0444 Y-13.1684
G01 X6.9783 Y-13.1849
G01 X6.9140 Y-13.2079
G01 X6.8524 Y-13.2371
G01 X6.7939 Y-13.2721
G01 X6.7391 Y-13.3128
G01 X6.6886 Y-13.3586
G01 X6.6490 Y-13.4018
G01 X6.6398 Y-13.4128
G01 X6.6021 Y-13.4639
G01 X6.5718 Y-13.5141
G01 X6.5628 Y-13.5309
G01 X6.5379 Y-13.5840
G01 X6.5179 Y-13.6392
G01 X6.5124 Y-13.6575
G01 X6.4984 Y-13.7144
G01 X6.4883 Y-13.7819
G01 X6.4850 Y-13.8500
G01 X6.4850 Y-14.8500
G01 X6.4876 Y-14.9086
G01 X6.4889 Y-14.9229
G01 X6.4967 Y-14.9762
G01 X6.5005 Y-14.9949
G01 X6.5149 Y-15.0517
G01 X6.5345 Y-15.1070
G01 X6.5418 Y-15.1247
G01 X6.5671 Y-15.1776
G01 X6.5970 Y-15.2280
G01 X6.6076 Y-15.2439
G01 X6.6428 Y-15.2909
G01 X6.6820 Y-15.3345
G01 X6.6955 Y-15.3480
G01 X6.7391 Y-15.3872
G01 X6.7861 Y-15.4224
G01 X6.8020 Y-15.4330
G01 X6.8524 Y-15.4629
G01 X6.9096 Y-15.4902
G00 Z1.0000
G00 X1.7696 Y-15.4902
G01 F60.00
G01 Z-0.0450
G01 F150.00
G01 X1.7830 Y-15.4955
G01 X1.8383 Y-15.5151
G01 X1.8951 Y-15.5295
G01 X1.9138 Y-15.5333
G01 X1.9671 Y-15.5411
G01 X1.9814 Y-15.5424
G01 X2.0400 Y-15.5450
G01 X2.7518 Y-15.5450
G01 X5.3518 Y-18.1451
G01 X5.3628 Y-18.1755
G01 X5.3664 Y-18.1843
G01 X5.4062 Y-18.2684
G01 X5.4131 Y-18.2809
G01 X5.4585 Y-18.3566
G01 X5.4666 Y-18.3684
G01 X5.5222 Y-18.4429
G01 X5.5911 Y-18.5189
G01 X5.6671 Y-18.5878
G01 X5.7416 Y-18.6434
G01 X5.7575 Y-18.6540
G01 X5.8291 Y-18.6969
G01 X5.8416 Y-18.7038
G01 X5.9301 Y-18.7455
G01 X6.0267 Y-18.7800
G01 X6.1261 Y-18.8049
G01 X6.2276 Y-18.8200
G01 X6.3300 Y-18.8250
G01 X6.4324 Y-18.8200
G01 X6.5339 Y-18.8049
G01 X6.6333 Y-18.7800
G01 X6.7299 Y-18.7455
G01 X6.8226 Y-18.7016
G01 X6.9106 Y-18.6489
G01 X6.9929 Y-18.5878
G01 X7.0689 Y-18.5189
G01 X7.1378 Y-18.4429
G01 X7.1989 Y-18.3606
G01 X7.2469 Y-18.2809
G01 X7.2538 Y-18.2684
G01 X7.2955 Y-18.1799
G01 X7.3270 Y-18.0924
G01 X7.3326 Y-18.0741
G01 X7.3549 Y-17.9839
G01 X7.3688 Y-17.8919
G01 X7.3707 Y-17.8729
G01 X7.3750 Y-17.7800
G01 X7.3700 Y-17.6776
G01 X7.3566 Y-17.5856
G01 X7.3528 Y-17.5668
G01 X7.3300 Y-17.4767
G01 X7.2955 Y-17.3801
G01 X7.2559 Y-17.2959
G01 X7.2469 Y-17.2791
G01 X7.1989 Y-17.1994
G01 X7.1408 Y-17.1208
G01 X7.1315 Y-17.1098
G01 X7.0755 Y-17.0480
G01 X7.0620 Y-17.0345
G01 X6.9929 Y-16.9722
G01 X6.9106 Y-16.9111
G01 X6.8226 Y-16.8584
G01 X6.7387 Y-16.8184
G01 X6.7210 Y-16.8111
G01 X6.6424 Y-16.7830
G01 X6.6288 Y-16.7787
G01 X6.5339 Y-16.7551
G01 X6.4419 Y-16.7412
G01 X6.4229 Y-16.7393
G01 X6.3396 Y-16.7352
G01 X6.3252 Y-16.7351
G01 X6.2276 Y-16.7400
G01 X6.1308 Y-16.7542
G01 X6.1168 Y-16.7572
G01 X6.0312 Y-16.7787
G01 X6.0176 Y-16.7830
G01 X5.9724 Y-16.7992
G01 X3.7350 Y-14.5618
G01 X3.7349 Y-13.8452
G01 X3.7324 Y-13.7914
G01 X3.7305 Y-13.7724
G01 X3.7216 Y-13.7144
G01 X3.7064 Y-13.6528
G01 X3.7021 Y-13.6392
G01 X3.6821 Y-13.5840
G01 X3.6529 Y-13.5224
G01 X3.6179 Y-13.4639
G01 X3.5772 Y-13.4091
G01 X3.5314 Y-13.3586
G01 X3.4809 Y-13.3128
G01 X3.4261 Y-13.2721
G01 X3.3759 Y-13.2418
G01 X3.3634 Y-13.2349
G01 X3.3060 Y-13.2079
G01 X3.2417 Y-13.1849
G01 X3.1756 Y-13.1684
G01 X3.1176 Y-13.1595
G01 X3.0986 Y-13.1576
G01 X3.0400 Y-13.1550
G01 X2.0400 Y-13.1550
G01 X1.9814 Y-13.1576
G01 X1.9671 Y-13.1589
G01 X1.9044 Y-13.1684
G01 X1.8475 Y-13.1824
G01 X1.8292 Y-13.1879
G01 X1.7740 Y-13.2079
G01 X1.7209 Y-13.2328
G01 X1.7082 Y-13.2394
G01 X1.6620 Y-13.2670
G01 X1.6461 Y-13.2776
G01 X1.5991 Y-13.3128
G01 X1.5486 Y-13.3586
G01 X1.5028 Y-13.4091
G01 X1.4648 Y-13.4599
G01 X1.4570 Y-13.4720
G01 X1.4271 Y-13.5224
G01 X1.4018 Y-13.5753
G01 X1.3945 Y-13.5930
G01 X1.3749 Y-13.6483
G01 X1.3605 Y-13.7051
G01 X1.3567 Y-13.7238
G01 X1.3495 Y-13.7724
G01 X1.3479 Y-13.7866
G01 X1.3450 Y-13.8500
G01 X1.3450 Y-14.8500
G01 X1.3483 Y-14.9181
G01 X1.3567 Y-14.9762
G01 X1.3605 Y-14.9949
G01 X1.3749 Y-15.0517
G01 X1.3945 Y-15.1070
G01 X1.4018 Y-15.1247
G01 X1.4271 Y-15.1776
G01 X1.4570 Y-15.2280
G01 X1.4676 Y-15.2439
G01 X1.5028 Y-15.2909
G01 X1.5486 Y-15.3414
G01 X1.5918 Y-15.3810
G01 X1.6066 Y-15.3931
G01 X1.6539 Y-15.4279
G01 X1.7041 Y-15.4582
G01 X1.7209 Y-15.4672
G01 X1.7696 Y-15.4902
G00 Z1.0000
G00 X13.0857 Y-18.8245
G01 F60.00
G01 Z-0.0450
G01 F150.00
G01 X13.1000 Y-18.8250
G01 X14.8048 Y-18.8249
G01 X14.8143 Y-18.8245
G01 X14.8286 Y-18.8229
G01 X14.8380 Y-18.8213
G01 X14.8520 Y-18.8179
G01 X14.8657 Y-18.8136
G01 X14.8790 Y-18.8083
G01 X14.8877 Y-18.8042
G01 X14.9002 Y-18.7973
G01 X14.9162 Y-18.7866
G01 X14.9274 Y-18.7777
G01 X14.9345 Y-18.7712
G01 X14.9477 Y-18.7574
G01 X14.9566 Y-18.7462
G01 X14.9621 Y-18.7383
G01 X14.9720 Y-18.7219
G01 X14.9783 Y-18.7090
G01 X14.9819 Y-18.7002
G01 X14.9866 Y-18.6866
G01 X14.9892 Y-18.6774
G01 X14.9929 Y-18.6586
G01 X14.9945 Y-18.6443
G01 X14.9950 Y-18.6300
G01 X14.9950 Y-18.1182
G01 X17.5682 Y-15.5450
G01 X18.2848 Y-15.5449
G01 X18.3481 Y-15.5417
G01 X18.4109 Y-15.5325
G01 X18.4249 Y-15.5295
G01 X18.4725 Y-15.5176
G01 X18.4908 Y-15.5121
G01 X18.5460 Y-15.4921
G01 X18.6076 Y-15.4629
G01 X18.6580 Y-15.4330
G01 X18.6739 Y-15.4224
G01 X18.7209 Y-15.3872
G01 X18.7680 Y-15.3448
G01 X18.7780 Y-15.3345
G01 X18.8172 Y-15.2909
G01 X18.8579 Y-15.2361
G01 X18.8929 Y-15.1776
G01 X18.9221 Y-15.1160
G01 X18.9451 Y-15.0517
G01 X18.9616 Y-14.9856
G01 X18.9717 Y-14.9181
G01 X18.9750 Y-14.8500
G01 X18.9750 Y-13.8500
G01 X18.9724 Y-13.7914
G01 X18.9711 Y-13.7771
G01 X18.9616 Y-13.7144
G01 X18.9476 Y-13.6575
G01 X18.9436 Y-13.6437
G01 X18.9255 Y-13.5930
G01 X18.9182 Y-13.5753
G01 X18.8929 Y-13.5224
G01 X18.8579 Y-13.4639
G01 X18.8172 Y-13.4091
G01 X18.7748 Y-13.3620
G01 X18.7645 Y-13.3520
G01 X18.7209 Y-13.3128
G01 X18.6739 Y-13.2776
G01 X18.6580 Y-13.2670
G01 X18.6118 Y-13.2394
G01 X18.5991 Y-13.2328
G01 X18.5460 Y-13.2079
G01 X18.4817 Y-13.1849
G01 X18.4156 Y-13.1684
G01 X18.3576 Y-13.1595
G01 X18.3434 Y-13.1579
G01 X18.2800 Y-13.1550
G01 X17.2800 Y-13.1550
G01 X17.2214 Y-13.1576
G01 X17.2024 Y-13.1595
G01 X17.1444 Y-13.1684
G01 X17.0783 Y-13.1849
G01 X17.0140 Y-13.2079
G01 X16.9609 Y-13.2328
G01 X16.9441 Y-13.2418
G01 X16.8939 Y-13.2721
G01 X16.8391 Y-13.3128
G01 X16.7886 Y-13.3586
G01 X16.7428 Y-13.4091
G01 X16.7021 Y-13.4639
G01 X16.6671 Y-13.5224
G01 X16.6379 Y-13.5840
G01 X16.6179 Y-13.6392
G01 X16.6136 Y-13.6528
G01 X16.6005 Y-13.7051
G01 X16.5967 Y-13.7238
G01 X16.5883 Y-13.7819
G01 X16.5851 Y-13.8452
G01 X16.5850 Y-14.5618
G01 X14.4118 Y-16.7350
G01 X13.0904 Y-16.7352
G01 X13.0714 Y-16.7371
G01 X13.0573 Y-16.7397
G01 X13.0388 Y-16.7448
G01 X13.0210 Y-16.7517
G01 X13.0039 Y-16.7603
G01 X12.9917 Y-16.7679
G01 X12.9763 Y-16.7793
G01 X12.9655 Y-16.7888
G01 X12.9523 Y-16.8026
G01 X12.9406 Y-16.8177
G01 X12.9303 Y-16.8339
G01 X12.9217 Y-16.8510
G01 X12.9148 Y-16.8688
G01 X12.9097 Y-16.8873
G01 X12.9065 Y-16.9061
G01 X12.9051 Y-16.9252
G01 X12.9052 Y-18.6396
G01 X12.9071 Y-18.6586
G01 X12.9108 Y-18.6774
G01 X12.9164 Y-18.6957
G01 X12.9217 Y-18.7090
G01 X12.9303 Y-18.7261
G01 X12.9379 Y-18.7383
G01 X12.9463 Y-18.7500
G01 X12.9588 Y-18.7645
G01 X12.9726 Y-18.7777
G01 X12.9877 Y-18.7894
G01 X13.0039 Y-18.7997
G01 X13.0166 Y-18.8063
G01 X13.0343 Y-18.8136
G01 X13.0526 Y-18.8192
G01 X13.0714 Y-18.8229
G01 X13.0857 Y-18.8245
G00 Z1.0000
G00 X13.0641 Y-19.1162
G01 F60.00
G01 Z-0.0450
G01 F150.00
G01 X13.0761 Y-19.1169
G01 X13.1000 Y-19.1175
G01 X14.8120 Y-19.1174
G01 X14.8359 Y-19.1162
G01 X14.8478 Y-19.1152
G01 X14.8597 Y-19.1138
G01 X14.8833 Y-19.1103
G01 X14.8951 Y-19.1081
G01 X14.9185 Y-19.1029
G01 X14.9415 Y-19.0965
G01 X14.9529 Y-19.0929
G01 X14.9754 Y-19.0848
G01 X14.9976 Y-19.0757
G01 X15.0084 Y-19.0707
G01 X15.0298 Y-19.0599
G01 X15.0506 Y-19.0481
G01 X15.0708 Y-19.0353
G01 X15.0904 Y-19.0216
G01 X15.0999 Y-19.0143
G01 X15.1184 Y-18.9991
G01 X15.1362 Y-18.9831
G01 X15.1531 Y-18.9662
G01 X15.1691 Y-18.9484
G01 X15.1843 Y-18.9299
G01 X15.1986 Y-18.9107
G01 X15.2053 Y-18.9008
G01 X15.2181 Y-18.8806
G01 X15.2299 Y-18.8598
G01 X15.2407 Y-18.8384
G01 X15.2504 Y-18.8166
G01 X15.2590 Y-18.7942
G01 X15.2665 Y-18.7715
G01 X15.2698 Y-18.7600
G01 X15.2757 Y-18.7368
G01 X15.2803 Y-18.7133
G01 X15.2822 Y-18.7015
G01 X15.2852 Y-18.6778
G01 X15.2869 Y-18.6539
G01 X15.2875 Y-18.6300
G01 X15.2875 Y-18.2394
G01 X17.6894 Y-15.8375
G01 X18.2920 Y-15.8374
G01 X18.3529 Y-15.8345
G01 X18.3768 Y-15.8327
G01 X18.4005 Y-15.8298
G01 X18.4491 Y-15.8226
G01 X18.4727 Y-15.8185
G01 X18.4844 Y-15.8160
G01 X18.5436 Y-15.8014
G01 X18.5667 Y-15.7950
G01 X18.5894 Y-15.7875
G01 X18.6356 Y-15.7709
G01 X18.6468 Y-15.7668
G01 X18.6689 Y-15.7576
G01 X18.7241 Y-15.7317
G01 X18.7455 Y-15.7209
G01 X18.7663 Y-15.7091
G01 X18.8186 Y-15.6776
G01 X18.8286 Y-15.6711
G01 X18.8482 Y-15.6573
G01 X18.8876 Y-15.6281
G01 X18.9065 Y-15.6133
G01 X18.9246 Y-15.5977
G01 X18.9609 Y-15.5648
G01 X18.9783 Y-15.5483
G01 X18.9948 Y-15.5309
G01 X19.0356 Y-15.4856
G01 X19.0433 Y-15.4765
G01 X19.0581 Y-15.4576
G01 X19.0873 Y-15.4182
G01 X19.1011 Y-15.3986
G01 X19.1139 Y-15.3784
G01 X19.1391 Y-15.3363
G01 X19.1509 Y-15.3155
G01 X19.1617 Y-15.2941
G01 X19.1826 Y-15.2498
G01 X19.1923 Y-15.2279
G01 X19.2009 Y-15.2056
G01 X19.2175 Y-15.1594
G01 X19.2250 Y-15.1367
G01 X19.2314 Y-15.1136
G01 X19.2460 Y-15.0544
G01 X19.2507 Y-15.0309
G01 X19.2598 Y-14.9705
G01 X19.2627 Y-14.9468
G01 X19.2645 Y-14.9229
G01 X19.2674 Y-14.8620
G01 X19.2675 Y-13.8500
G01 X19.2669 Y-13.8261
G01 X19.2645 Y-13.7771
G01 X19.2627 Y-13.7532
G01 X19.2598 Y-13.7295
G01 X19.2526 Y-13.6809
G01 X19.2485 Y-13.6573
G01 X19.2433 Y-13.6340
G01 X19.2314 Y-13.5864
G01 X19.2250 Y-13.5633
G01 X19.2175 Y-13.5406
G01 X19.2009 Y-13.4944
G01 X19.1923 Y-13.4721
G01 X19.1826 Y-13.4502
G01 X19.1617 Y-13.4059
G01 X19.1509 Y-13.3845
G01 X19.1391 Y-13.3637
G01 X19.1139 Y-13.3216
G01 X19.1011 Y-13.3014
G01 X19.0873 Y-13.2818
G01 X19.0581 Y-13.2424
G01 X19.0433 Y-13.2235
G01 X19.0277 Y-13.2054
G01 X18.9948 Y-13.1691
G01 X18.9783 Y-13.1517
G01 X18.9609 Y-13.1352
G01 X18.9246 Y-13.1023
G01 X18.9065 Y-13.0867
G01 X18.8876 Y-13.0719
G01 X18.8482 Y-13.0427
G01 X18.8286 Y-13.0289
G01 X18.8084 Y-13.0161
G01 X18.7663 Y-12.9909
G01 X18.7455 Y-12.9791
G01 X18.7241 Y-12.9683
G01 X18.6689 Y-12.9424
G01 X18.6468 Y-12.9332
G01 X18.6356 Y-12.9291
G01 X18.5781 Y-12.9086
G01 X18.5552 Y-12.9017
G01 X18.4960 Y-12.8867
G01 X18.4727 Y-12.8815
G01 X18.4491 Y-12.8774
G01 X18.3887 Y-12.8686
G01 X18.3768 Y-12.8673
G01 X18.3529 Y-12.8655
G01 X18.3039 Y-12.8631
G01 X18.2800 Y-12.8625
G01 X17.2800 Y-12.8625
G01 X17.2561 Y-12.8631
G01 X17.2071 Y-12.8655
G01 X17.1832 Y-12.8673
G01 X17.1595 Y-12.8702
G01 X17.1109 Y-12.8774
G01 X17.0873 Y-12.8815
G01 X17.0756 Y-12.8840
G01 X17.0048 Y-12.9017
G01 X16.9933 Y-12.9050
G01 X16.9706 Y-12.9125
G01 X16.9244 Y-12.9291
G01 X16.9021 Y-12.9377
G01 X16.8802 Y-12.9474
G01 X16.8359 Y-12.9683
G01 X16.8145 Y-12.9791
G01 X16.8040 Y-12.9849
G01 X16.7414 Y-13.0224
G01 X16.7314 Y-13.0289
G01 X16.7118 Y-13.0427
G01 X16.6629 Y-13.0792
G01 X16.6444 Y-13.0944
G01 X16.5991 Y-13.1352
G01 X16.5817 Y-13.1517
G01 X16.5652 Y-13.1691
G01 X16.5244 Y-13.2144
G01 X16.5167 Y-13.2235
G01 X16.5019 Y-13.2424
G01 X16.4727 Y-13.2818
G01 X16.4589 Y-13.3014
G01 X16.4461 Y-13.3216
G01 X16.4209 Y-13.3637
G01 X16.4091 Y-13.3845
G01 X16.3983 Y-13.4059
G01 X16.3774 Y-13.4502
G01 X16.3677 Y-13.4721
G01 X16.3591 Y-13.4944
G01 X16.3425 Y-13.5406
G01 X16.3350 Y-13.5633
G01 X16.3286 Y-13.5864
G01 X16.3140 Y-13.6456
G01 X16.3093 Y-13.6691
G01 X16.3074 Y-13.6809
G01 X16.3002 Y-13.7295
G01 X16.2973 Y-13.7532
G01 X16.2955 Y-13.7771
G01 X16.2931 Y-13.8261
G01 X16.2925 Y-13.8500
G01 X16.2925 Y-14.4406
G01 X14.2906 Y-16.4425
G01 X13.1000 Y-16.4425
G01 X13.0761 Y-16.4431
G01 X13.0641 Y-16.4438
G01 X13.0522 Y-16.4448
G01 X13.0285 Y-16.4478
G01 X13.0167 Y-16.4497
G01 X12.9932 Y-16.4543
G01 X12.9700 Y-16.4602
G01 X12.9585 Y-16.4635
G01 X12.9358 Y-16.4710
G01 X12.9246 Y-16.4752
G01 X12.9134 Y-16.4796
G01 X12.8916 Y-16.4893
G01 X12.8702 Y-16.5001
G01 X12.8597 Y-16.5058
G01 X12.8392 Y-16.5181
G01 X12.8292 Y-16.5247
G01 X12.8096 Y-16.5384
G01 X12.7907 Y-16.5532
G01 X12.7726 Y-16.5688
G01 X12.7553 Y-16.5853
G01 X12.7469 Y-16.5938
G01 X12.7388 Y-16.6026
G01 X12.7232 Y-16.6207
G01 X12.7084 Y-16.6396
G01 X12.7014 Y-16.6493
G01 X12.6881 Y-16.6692
G01 X12.6819 Y-16.6794
G01 X12.6701 Y-16.7002
G01 X12.6593 Y-16.7216
G01 X12.6543 Y-16.7324
G01 X12.6452 Y-16.7546
G01 X12.6371 Y-16.7771
G01 X12.6335 Y-16.7885
G01 X12.6271 Y-16.8115
G01 X12.6219 Y-16.8349
G01 X12.6197 Y-16.8467
G01 X12.6178 Y-16.8585
G01 X12.6148 Y-16.8822
G01 X12.6131 Y-16.9061
G01 X12.6125 Y-16.9300
G01 X12.6125 Y-17.1966
G01 X12.5951 Y-17.1601
G01 X12.5838 Y-17.1390
G01 X12.5349 Y-17.0571
G01 X12.5221 Y-17.0369
G01 X12.5083 Y-17.0174
G01 X12.4514 Y-16.9408
G01 X12.4362 Y-16.9223
G01 X12.3978 Y-16.8797
G01 X12.3978 Y-16.0491
G01 X12.6094 Y-15.8375
G01 X13.2000 Y-15.8375
G01 X13.2239 Y-15.8369
G01 X13.2849 Y-15.8338
G01 X13.3087 Y-15.8314
G01 X13.3691 Y-15.8226
G01 X13.3927 Y-15.8185
G01 X13.4160 Y-15.8133
G01 X13.4636 Y-15.8014
G01 X13.4867 Y-15.7950
G01 X13.5094 Y-15.7875
G01 X13.5668 Y-15.7668
G01 X13.5889 Y-15.7576
G01 X13.6441 Y-15.7317
G01 X13.6655 Y-15.7209
G01 X13.6863 Y-15.7091
G01 X13.7284 Y-15.6839
G01 X13.7486 Y-15.6711
G01 X13.7682 Y-15.6573
G01 X13.8171 Y-15.6208
G01 X13.8356 Y-15.6056
G01 X13.8809 Y-15.5648
G01 X13.8897 Y-15.5566
G01 X13.9066 Y-15.5397
G01 X13.9477 Y-15.4946
G01 X13.9633 Y-15.4765
G01 X13.9781 Y-15.4576
G01 X14.0073 Y-15.4182
G01 X14.0143 Y-15.4085
G01 X14.0276 Y-15.3886
G01 X14.0591 Y-15.3363
G01 X14.0709 Y-15.3155
G01 X14.0817 Y-15.2941
G01 X14.1026 Y-15.2498
G01 X14.1123 Y-15.2279
G01 X14.1168 Y-15.2168
G01 X14.1375 Y-15.1594
G01 X14.1450 Y-15.1367
G01 X14.1514 Y-15.1136
G01 X14.1633 Y-15.0660
G01 X14.1685 Y-15.0427
G01 X14.1707 Y-15.0309
G01 X14.1798 Y-14.9705
G01 X14.1827 Y-14.9468
G01 X14.1845 Y-14.9229
G01 X14.1869 Y-14.8739
G01 X14.1875 Y-14.8500
G01 X14.1875 Y-13.8500
G01 X14.1869 Y-13.8261
G01 X14.1845 Y-13.7771
G01 X14.1827 Y-13.7532
G01 X14.1798 Y-13.7295
G01 X14.1726 Y-13.6809
G01 X14.1685 Y-13.6573
G01 X14.1633 Y-13.6340
G01 X14.1514 Y-13.5864
G01 X14.1450 Y-13.5633
G01 X14.1375 Y-13.5406
G01 X14.1209 Y-13.4944
G01 X14.1123 Y-13.4721
G01 X14.1076 Y-13.4611
G01 X14.0817 Y-13.4059
G01 X14.0709 Y-13.3845
G01 X14.0591 Y-13.3637
G01 X14.0276 Y-13.3114
G01 X14.0143 Y-13.2915
G01 X14.0073 Y-13.2818
G01 X13.9781 Y-13.2424
G01 X13.9633 Y-13.2235
G01 X13.9477 Y-13.2054
G01 X13.9148 Y-13.1691
G01 X13.9066 Y-13.1603
G01 X13.8897 Y-13.1434
G01 X13.8446 Y-13.1023
G01 X13.8265 Y-13.0867
G01 X13.8076 Y-13.0719
G01 X13.7585 Y-13.0357
G01 X13.7386 Y-13.0224
G01 X13.7284 Y-13.0161
G01 X13.6863 Y-12.9909
G01 X13.6655 Y-12.9791
G01 X13.6441 Y-12.9683
G01 X13.5889 Y-12.9424
G01 X13.5668 Y-12.9332
G01 X13.5094 Y-12.9125
G01 X13.4981 Y-12.9086
G01 X13.4752 Y-12.9017
G01 X13.4160 Y-12.8867
G01 X13.3927 Y-12.8815
G01 X13.3691 Y-12.8774
G01 X13.3205 Y-12.8702
G01 X13.2968 Y-12.8673
G01 X13.2849 Y-12.8662
G01 X13.2120 Y-12.8626
G01 X12.2000 Y-12.8625
G01 X12.1761 Y-12.8631
G01 X12.1151 Y-12.8662
G01 X12.0913 Y-12.8686
G01 X12.0191 Y-12.8793
G01 X12.0073 Y-12.8815
G01 X11.9840 Y-12.8867
G01 X11.9248 Y-12.9017
G01 X11.9019 Y-12.9086
G01 X11.8906 Y-12.9125
G01 X11.8444 Y-12.9291
G01 X11.8221 Y-12.9377
G01 X11.8002 Y-12.9474
G01 X11.7559 Y-12.9683
G01 X11.7345 Y-12.9791
G01 X11.7240 Y-12.9849
G01 X11.6614 Y-13.0224
G01 X11.6514 Y-13.0289
G01 X11.6318 Y-13.0427
G01 X11.5829 Y-13.0792
G01 X11.5735 Y-13.0867
G01 X11.5554 Y-13.1023
G01 X11.5103 Y-13.1434
G01 X11.4934 Y-13.1603
G01 X11.4523 Y-13.2054
G01 X11.4444 Y-13.2144
G01 X11.4292 Y-13.2329
G01 X11.3857 Y-13.2915
G01 X11.3724 Y-13.3114
G01 X11.3409 Y-13.3637
G01 X11.3291 Y-13.3845
G01 X11.3236 Y-13.3951
G01 X11.2974 Y-13.4502
G01 X11.2877 Y-13.4721
G01 X11.2791 Y-13.4944
G01 X11.2625 Y-13.5406
G01 X11.2550 Y-13.5633
G01 X11.2486 Y-13.5864
G01 X11.2340 Y-13.6456
G01 X11.2315 Y-13.6573
G01 X11.2274 Y-13.6809
G01 X11.2186 Y-13.7413
G01 X11.2162 Y-13.7651
G01 X11.2131 Y-13.8261
G01 X11.2125 Y-13.8500
G01 X11.2125 Y-14.4406
G01 X10.7116 Y-14.9416
G01 X10.6951 Y-14.9589
G01 X10.6542 Y-15.0042
G01 X10.6465 Y-15.0134
G01 X10.6317 Y-15.0322
G01 X10.5955 Y-15.0814
G01 X10.5822 Y-15.1013
G01 X10.5507 Y-15.1536
G01 X10.5389 Y-15.1744
G01 X10.5334 Y-15.1850
G01 X10.5071 Y-15.2401
G01 X10.4974 Y-15.2620
G01 X10.4888 Y-15.2843
G01 X10.4723 Y-15.3306
G01 X10.4648 Y-15.3533
G01 X10.4584 Y-15.3763
G01 X10.4465 Y-15.4240
G01 X10.4412 Y-15.4473
G01 X10.4371 Y-15.4709
G01 X10.4299 Y-15.5194
G01 X10.4270 Y-15.5432
G01 X10.4252 Y-15.5670
G01 X10.4228 Y-15.6161
G01 X10.4223 Y-15.6400
G01 X10.4222 Y-16.8797
G01 X10.3917 Y-16.9134
G01 X10.3761 Y-16.9315
G01 X10.3614 Y-16.9504
G01 X10.3117 Y-17.0174
G01 X10.2979 Y-17.0369
G01 X10.2914 Y-17.0470
G01 X10.2422 Y-17.1287
G01 X10.2304 Y-17.1495
G01 X10.2249 Y-17.1601
G01 X10.1790 Y-17.2572
G01 X10.1699 Y-17.2793
G01 X10.1657 Y-17.2905
G01 X10.1400 Y-17.3623
G01 X10.1143 Y-17.2905
G01 X10.1057 Y-17.2682
G01 X10.1010 Y-17.2572
G01 X10.0551 Y-17.1601
G01 X10.0438 Y-17.1390
G01 X10.0378 Y-17.1287
G01 X9.9886 Y-17.0470
G01 X9.9753 Y-17.0271
G01 X9.9683 Y-17.0174
G01 X9.9186 Y-16.9504
G01 X9.9039 Y-16.9315
G01 X9.8883 Y-16.9134
G01 X9.8577 Y-16.8797
G01 X9.8576 Y-15.5280
G01 X9.8548 Y-15.4670
G01 X9.8530 Y-15.4432
G01 X9.8501 Y-15.4194
G01 X9.8410 Y-15.3591
G01 X9.8363 Y-15.3356
G01 X9.8216 Y-15.2763
G01 X9.8152 Y-15.2533
G01 X9.8077 Y-15.2306
G01 X9.7912 Y-15.1843
G01 X9.7826 Y-15.1620
G01 X9.7729 Y-15.1401
G01 X9.7519 Y-15.0958
G01 X9.7411 Y-15.0744
G01 X9.7293 Y-15.0536
G01 X9.7041 Y-15.0115
G01 X9.6913 Y-14.9912
G01 X9.6775 Y-14.9717
G01 X9.6483 Y-14.9322
G01 X9.6335 Y-14.9134
G01 X9.6179 Y-14.8953
G01 X9.5849 Y-14.8589
G01 X9.5684 Y-14.8416
G01 X9.1675 Y-14.4406
G01 X9.1675 Y-13.8500
G01 X9.1669 Y-13.8261
G01 X9.1645 Y-13.7771
G01 X9.1627 Y-13.7532
G01 X9.1598 Y-13.7295
G01 X9.1526 Y-13.6809
G01 X9.1485 Y-13.6573
G01 X9.1433 Y-13.6340
G01 X9.1314 Y-13.5864
G01 X9.1250 Y-13.5633
G01 X9.1175 Y-13.5406
G01 X9.1009 Y-13.4944
G01 X9.0923 Y-13.4721
G01 X9.0826 Y-13.4502
G01 X9.0617 Y-13.4059
G01 X9.0509 Y-13.3845
G01 X9.0391 Y-13.3637
G01 X9.0139 Y-13.3216
G01 X9.0011 Y-13.3014
G01 X8.9873 Y-13.2818
G01 X8.9508 Y-13.2329
G01 X8.9356 Y-13.2144
G01 X8.8948 Y-13.1691
G01 X8.8783 Y-13.1517
G01 X8.8609 Y-13.1352
G01 X8.8246 Y-13.1023
G01 X8.8065 Y-13.0867
G01 X8.7876 Y-13.0719
G01 X8.7482 Y-13.0427
G01 X8.7286 Y-13.0289
G01 X8.7084 Y-13.0161
G01 X8.6663 Y-12.9909
G01 X8.6455 Y-12.9791
G01 X8.6241 Y-12.9683
G01 X8.5689 Y-12.9424
G01 X8.5579 Y-12.9377
G01 X8.5356 Y-12.9291
G01 X8.4894 Y-12.9125
G01 X8.4667 Y-12.9050
G01 X8.4436 Y-12.8986
G01 X8.3960 Y-12.8867
G01 X8.3727 Y-12.8815
G01 X8.3491 Y-12.8774
G01 X8.3005 Y-12.8702
G01 X8.2768 Y-12.8673
G01 X8.2529 Y-12.8655
G01 X8.1920 Y-12.8626
G01 X7.1680 Y-12.8626
G01 X7.1071 Y-12.8655
G01 X7.0832 Y-12.8673
G01 X7.0595 Y-12.8702
G01 X7.0109 Y-12.8774
G01 X6.9991 Y-12.8793
G01 X6.9756 Y-12.8840
G01 X6.9164 Y-12.8986
G01 X6.8933 Y-12.9050
G01 X6.8706 Y-12.9125
G01 X6.8132 Y-12.9332
G01 X6.8021 Y-12.9377
G01 X6.7802 Y-12.9474
G01 X6.7359 Y-12.9683
G01 X6.7145 Y-12.9791
G01 X6.6937 Y-12.9909
G01 X6.6414 Y-13.0224
G01 X6.6314 Y-13.0289
G01 X6.6118 Y-13.0427
G01 X6.5724 Y-13.0719
G01 X6.5535 Y-13.0867
G01 X6.5354 Y-13.1023
G01 X6.4903 Y-13.1434
G01 X6.4734 Y-13.1603
G01 X6.4652 Y-13.1691
G01 X6.4323 Y-13.2054
G01 X6.4167 Y-13.2235
G01 X6.4019 Y-13.2424
G01 X6.3727 Y-13.2818
G01 X6.3589 Y-13.3014
G01 X6.3524 Y-13.3114
G01 X6.3209 Y-13.3637
G01 X6.3091 Y-13.3845
G01 X6.2983 Y-13.4059
G01 X6.2724 Y-13.4611
G01 X6.2677 Y-13.4721
G01 X6.2591 Y-13.4944
G01 X6.2425 Y-13.5406
G01 X6.2350 Y-13.5633
G01 X6.2286 Y-13.5864
G01 X6.2140 Y-13.6456
G01 X6.2115 Y-13.6573
G01 X6.2074 Y-13.6809
G01 X6.2002 Y-13.7295
G01 X6.1973 Y-13.7532
G01 X6.1955 Y-13.7771
G01 X6.1926 Y-13.8380
G01 X6.1925 Y-14.8500
G01 X6.1931 Y-14.8739
G01 X6.1955 Y-14.9229
G01 X6.1973 Y-14.9468
G01 X6.2002 Y-14.9705
G01 X6.2093 Y-15.0309
G01 X6.2140 Y-15.0544
G01 X6.2167 Y-15.0660
G01 X6.2286 Y-15.1136
G01 X6.2350 Y-15.1367
G01 X6.2425 Y-15.1594
G01 X6.2632 Y-15.2168
G01 X6.2724 Y-15.2389
G01 X6.2774 Y-15.2498
G01 X6.2983 Y-15.2941
G01 X6.3091 Y-15.3155
G01 X6.3209 Y-15.3363
G01 X6.3524 Y-15.3886
G01 X6.3657 Y-15.4085
G01 X6.3727 Y-15.4182
G01 X6.4019 Y-15.4576
G01 X6.4167 Y-15.4765
G01 X6.4323 Y-15.4946
G01 X6.4652 Y-15.5309
G01 X6.4817 Y-15.5483
G01 X6.4991 Y-15.5648
G01 X6.5354 Y-15.5977
G01 X6.5535 Y-15.6133
G01 X6.5724 Y-15.6281
G01 X6.6118 Y-15.6573
G01 X6.6314 Y-15.6711
G01 X6.6516 Y-15.6839
G01 X6.7040 Y-15.7151
G01 X6.7251 Y-15.7264
G01 X6.7802 Y-15.7526
G01 X6.8021 Y-15.7623
G01 X6.8244 Y-15.7709
G01 X6.8706 Y-15.7875
G01 X6.8819 Y-15.7914
G01 X6.9048 Y-15.7983
G01 X6.9640 Y-15.8133
G01 X6.9873 Y-15.8185
G01 X7.0109 Y-15.8226
G01 X7.0713 Y-15.8314
G01 X7.0951 Y-15.8338
G01 X7.1071 Y-15.8345
G01 X7.1561 Y-15.8369
G01 X7.1800 Y-15.8375
G01 X7.7706 Y-15.8375
G01 X7.8822 Y-15.9491
G01 X7.8822 Y-16.8797
G01 X7.8517 Y-16.9134
G01 X7.8361 Y-16.9315
G01 X7.8214 Y-16.9504
G01 X7.7717 Y-17.0174
G01 X7.7579 Y-17.0369
G01 X7.7514 Y-17.0470
G01 X7.7022 Y-17.1287
G01 X7.6904 Y-17.1495
G01 X7.6849 Y-17.1601
G01 X7.6390 Y-17.2572
G01 X7.6343 Y-17.2682
G01 X7.6257 Y-17.2905
G01 X7.6000 Y-17.3623
G01 X7.5743 Y-17.2905
G01 X7.5657 Y-17.2682
G01 X7.5560 Y-17.2463
G01 X7.5203 Y-17.1709
G01 X7.5096 Y-17.1495
G01 X7.4978 Y-17.1287
G01 X7.4549 Y-17.0571
G01 X7.4421 Y-17.0369
G01 X7.4283 Y-17.0174
G01 X7.3786 Y-16.9504
G01 X7.3639 Y-16.9315
G01 X7.3483 Y-16.9134
G01 X7.2923 Y-16.8516
G01 X7.2758 Y-16.8342
G01 X7.2584 Y-16.8177
G01 X7.1966 Y-16.7617
G01 X7.1785 Y-16.7461
G01 X7.1596 Y-16.7314
G01 X7.0926 Y-16.6817
G01 X7.0731 Y-16.6679
G01 X7.0529 Y-16.6551
G01 X6.9710 Y-16.6062
G01 X6.9605 Y-16.6004
G01 X6.9391 Y-16.5897
G01 X6.8528 Y-16.5490
G01 X6.8418 Y-16.5443
G01 X6.8195 Y-16.5357
G01 X6.7410 Y-16.5076
G01 X6.7183 Y-16.5001
G01 X6.7068 Y-16.4968
G01 X6.6143 Y-16.4734
G01 X6.5909 Y-16.4682
G01 X6.5674 Y-16.4641
G01 X6.4848 Y-16.4519
G01 X6.4611 Y-16.4489
G01 X6.4492 Y-16.4479
G01 X6.3539 Y-16.4431
G01 X6.3300 Y-16.4425
G01 X6.3180 Y-16.4426
G01 X6.2228 Y-16.4472
G01 X6.1989 Y-16.4489
G01 X6.1752 Y-16.4519
G01 X6.0926 Y-16.4641
G01 X6.0808 Y-16.4660
G01 X6.0575 Y-16.4706
G01 X4.0275 Y-14.4406
G01 X4.0275 Y-13.8500
G01 X4.0269 Y-13.8261
G01 X4.0245 Y-13.7771
G01 X4.0238 Y-13.7651
G01 X4.0214 Y-13.7413
G01 X4.0126 Y-13.6809
G01 X4.0085 Y-13.6573
G01 X4.0033 Y-13.6340
G01 X3.9914 Y-13.5864
G01 X3.9850 Y-13.5633
G01 X3.9814 Y-13.5519
G01 X3.9609 Y-13.4944
G01 X3.9523 Y-13.4721
G01 X3.9426 Y-13.4502
G01 X3.9217 Y-13.4059
G01 X3.9109 Y-13.3845
G01 X3.8991 Y-13.3637
G01 X3.8739 Y-13.3216
G01 X3.8611 Y-13.3014
G01 X3.8473 Y-13.2818
G01 X3.8108 Y-13.2329
G01 X3.8033 Y-13.2235
G01 X3.7877 Y-13.2054
G01 X3.7466 Y-13.1603
G01 X3.7297 Y-13.1434
G01 X3.6846 Y-13.1023
G01 X3.6756 Y-13.0944
G01 X3.6571 Y-13.0792
G01 X3.6082 Y-13.0427
G01 X3.5886 Y-13.0289
G01 X3.5684 Y-13.0161
G01 X3.5263 Y-12.9909
G01 X3.5055 Y-12.9791
G01 X3.4841 Y-12.9683
G01 X3.4398 Y-12.9474
G01 X3.4179 Y-12.9377
G01 X3.4068 Y-12.9332
G01 X3.3381 Y-12.9086
G01 X3.3152 Y-12.9017
G01 X3.3036 Y-12.8986
G01 X3.2560 Y-12.8867
G01 X3.2327 Y-12.8815
G01 X3.2091 Y-12.8774
G01 X3.1605 Y-12.8702
G01 X3.1368 Y-12.8673
G01 X3.1249 Y-12.8662
G01 X3.0639 Y-12.8631
G01 X3.0400 Y-12.8625
G01 X2.0400 Y-12.8625
G01 X2.0161 Y-12.8631
G01 X1.9671 Y-12.8655
G01 X1.9432 Y-12.8673
G01 X1.9195 Y-12.8702
G01 X1.8591 Y-12.8793
G01 X1.8473 Y-12.8815
G01 X1.8240 Y-12.8867
G01 X1.7764 Y-12.8986
G01 X1.7533 Y-12.9050
G01 X1.7306 Y-12.9125
G01 X1.6844 Y-12.9291
G01 X1.6732 Y-12.9332
G01 X1.6511 Y-12.9424
G01 X1.5851 Y-12.9736
G01 X1.5745 Y-12.9791
G01 X1.5537 Y-12.9909
G01 X1.5116 Y-13.0161
G01 X1.4914 Y-13.0289
G01 X1.4718 Y-13.0427
G01 X1.4324 Y-13.0719
G01 X1.4229 Y-13.0792
G01 X1.4044 Y-13.0944
G01 X1.3503 Y-13.1434
G01 X1.3417 Y-13.1517
G01 X1.3252 Y-13.1691
G01 X1.2923 Y-13.2054
G01 X1.2767 Y-13.2235
G01 X1.2619 Y-13.2424
G01 X1.2327 Y-13.2818
G01 X1.2189 Y-13.3014
G01 X1.2124 Y-13.3114
G01 X1.1749 Y-13.3740
G01 X1.1691 Y-13.3845
G01 X1.1583 Y-13.4059
G01 X1.1324 Y-13.4611
G01 X1.1232 Y-13.4832
G01 X1.1025 Y-13.5406
G01 X1.0950 Y-13.5633
G01 X1.0917 Y-13.5748
G01 X1.0767 Y-13.6340
G01 X1.0715 Y-13.6573
G01 X1.0674 Y-13.6809
G01 X1.0602 Y-13.7295
G01 X1.0573 Y-13.7532
G01 X1.0562 Y-13.7651
G01 X1.0531 Y-13.8261
G01 X1.0525 Y-13.8500
G01 X1.0525 Y-14.8500
G01 X1.0531 Y-14.8739
G01 X1.0555 Y-14.9229
G01 X1.0573 Y-14.9468
G01 X1.0602 Y-14.9705
G01 X1.0693 Y-15.0309
G01 X1.0740 Y-15.0544
G01 X1.0886 Y-15.1136
G01 X1.0950 Y-15.1367
G01 X1.1025 Y-15.1594
G01 X1.1232 Y-15.2168
G01 X1.1324 Y-15.2389
G01 X1.1583 Y-15.2941
G01 X1.1691 Y-15.3155
G01 X1.1809 Y-15.3363
G01 X1.2061 Y-15.3784
G01 X1.2189 Y-15.3986
G01 X1.2327 Y-15.4182
G01 X1.2619 Y-15.4576
G01 X1.2767 Y-15.4765
G01 X1.2923 Y-15.4946
G01 X1.3334 Y-15.5397
G01 X1.3503 Y-15.5566
G01 X1.3591 Y-15.5648
G01 X1.3954 Y-15.5977
G01 X1.4135 Y-15.6133
G01 X1.4324 Y-15.6281
G01 X1.4718 Y-15.6573
G01 X1.4914 Y-15.6711
G01 X1.5116 Y-15.6839
G01 X1.5537 Y-15.7091
G01 X1.5745 Y-15.7209
G01 X1.5959 Y-15.7317
G01 X1.6402 Y-15.7526
G01 X1.6621 Y-15.7623
G01 X1.6844 Y-15.7709
G01 X1.7419 Y-15.7914
G01 X1.7648 Y-15.7983
G01 X1.8356 Y-15.8160
G01 X1.8591 Y-15.8207
G01 X1.8709 Y-15.8226
G01 X1.9195 Y-15.8298
G01 X1.9432 Y-15.8327
G01 X1.9671 Y-15.8345
G01 X2.0161 Y-15.8369
G01 X2.0400 Y-15.8375
G01 X2.6306 Y-15.8375
G01 X5.1016 Y-18.3085
G01 X5.1397 Y-18.3891
G01 X5.1504 Y-18.4105
G01 X5.1622 Y-18.4313
G01 X5.2051 Y-18.5029
G01 X5.2179 Y-18.5231
G01 X5.2317 Y-18.5426
G01 X5.2814 Y-18.6096
G01 X5.2961 Y-18.6285
G01 X5.3117 Y-18.6466
G01 X5.3677 Y-18.7084
G01 X5.3842 Y-18.7258
G01 X5.4016 Y-18.7423
G01 X5.4634 Y-18.7983
G01 X5.4815 Y-18.8139
G01 X5.5004 Y-18.8286
G01 X5.5674 Y-18.8783
G01 X5.5869 Y-18.8921
G01 X5.6071 Y-18.9049
G01 X5.6890 Y-18.9538
G01 X5.7101 Y-18.9651
G01 X5.7209 Y-18.9703
G01 X5.7963 Y-19.0060
G01 X5.8182 Y-19.0157
G01 X5.8293 Y-19.0201
G01 X5.9303 Y-19.0563
G01 X5.9417 Y-19.0599
G01 X5.9648 Y-19.0663
G01 X6.0574 Y-19.0893
G01 X6.0691 Y-19.0918
G01 X6.0926 Y-19.0959
G01 X6.1752 Y-19.1081
G01 X6.1989 Y-19.1111
G01 X6.2228 Y-19.1128
G01 X6.3061 Y-19.1169
G01 X6.3300 Y-19.1175
G01 X6.3539 Y-19.1169
G01 X6.4372 Y-19.1128
G01 X6.4611 Y-19.1111
G01 X6.4848 Y-19.1081
G01 X6.5674 Y-19.0959
G01 X6.5909 Y-19.0918
G01 X6.6143 Y-19.0866
G01 X6.6952 Y-19.0663
G01 X6.7183 Y-19.0599
G01 X6.7410 Y-19.0524
G01 X6.8195 Y-19.0243
G01 X6.8418 Y-19.0157
G01 X6.8637 Y-19.0060
G01 X6.9391 Y-18.9703
G01 X6.9605 Y-18.9596
G01 X6.9813 Y-18.9478
G01 X7.0529 Y-18.9049
G01 X7.0731 Y-18.8921
G01 X7.0926 Y-18.8783
G01 X7.1596 Y-18.8286
G01 X7.1785 Y-18.8139
G01 X7.1966 Y-18.7983
G01 X7.2584 Y-18.7423
G01 X7.2758 Y-18.7258
G01 X7.2923 Y-18.7084
G01 X7.3483 Y-18.6466
G01 X7.3562 Y-18.6377
G01 X7.3714 Y-18.6192
G01 X7.4353 Y-18.5329
G01 X7.4421 Y-18.5231
G01 X7.4549 Y-18.5029
G01 X7.5038 Y-18.4210
G01 X7.5151 Y-18.3999
G01 X7.5203 Y-18.3891
G01 X7.5560 Y-18.3137
G01 X7.5657 Y-18.2918
G01 X7.5743 Y-18.2695
G01 X7.6000 Y-18.1977
G01 X7.6257 Y-18.2695
G01 X7.6343 Y-18.2918
G01 X7.6440 Y-18.3137
G01 X7.6797 Y-18.3891
G01 X7.6904 Y-18.4105
G01 X7.7022 Y-18.4313
G01 X7.7451 Y-18.5029
G01 X7.7579 Y-18.5231
G01 X7.7717 Y-18.5426
G01 X7.8214 Y-18.6096
G01 X7.8361 Y-18.6285
G01 X7.8517 Y-18.6466
G01 X7.9077 Y-18.7084
G01 X7.9242 Y-18.7258
G01 X7.9416 Y-18.7423
G01 X8.0034 Y-18.7983
G01 X8.0215 Y-18.8139
G01 X8.0404 Y-18.8286
G01 X8.1074 Y-18.8783
G01 X8.1269 Y-18.8921
G01 X8.1471 Y-18.9049
G01 X8.2187 Y-18.9478
G01 X8.2290 Y-18.9538
G01 X8.2501 Y-18.9651
G01 X8.3363 Y-19.0060
G01 X8.3582 Y-19.0157
G01 X8.3805 Y-19.0243
G01 X8.4590 Y-19.0524
G01 X8.4817 Y-19.0599
G01 X8.4932 Y-19.0632
G01 X8.5857 Y-19.0866
G01 X8.6091 Y-19.0918
G01 X8.6208 Y-19.0940
G01 X8.7152 Y-19.1081
G01 X8.7389 Y-19.1111
G01 X8.7628 Y-19.1128
G01 X8.8461 Y-19.1169
G01 X8.8700 Y-19.1175
G01 X8.8939 Y-19.1169
G01 X8.9772 Y-19.1128
G01 X9.0011 Y-19.1111
G01 X9.0248 Y-19.1081
G01 X9.1192 Y-19.0940
G01 X9.1309 Y-19.0918
G01 X9.1543 Y-19.0866
G01 X9.2352 Y-19.0663
G01 X9.2468 Y-19.0632
G01 X9.2697 Y-19.0563
G01 X9.3595 Y-19.0243
G01 X9.3818 Y-19.0157
G01 X9.4037 Y-19.0060
G01 X9.4791 Y-18.9703
G01 X9.5005 Y-18.9596
G01 X9.5213 Y-18.9478
G01 X9.5929 Y-18.9049
G01 X9.6131 Y-18.8921
G01 X9.6326 Y-18.8783
G01 X9.6996 Y-18.8286
G01 X9.7092 Y-18.8214
G01 X9.7277 Y-18.8062
G01 X9.7984 Y-18.7423
G01 X9.8158 Y-18.7258
G01 X9.8323 Y-18.7084
G01 X9.8883 Y-18.6466
G01 X9.9039 Y-18.6285
G01 X9.9186 Y-18.6096
G01 X9.9683 Y-18.5426
G01 X9.9821 Y-18.5231
G01 X9.9949 Y-18.5029
G01 X10.0378 Y-18.4313
G01 X10.0496 Y-18.4105
G01 X10.0603 Y-18.3891
G01 X10.0960 Y-18.3137
G01 X10.1057 Y-18.2918
G01 X10.1143 Y-18.2695
G01 X10.1400 Y-18.1977
G01 X10.1657 Y-18.2695
G01 X10.1743 Y-18.2918
G01 X10.1840 Y-18.3137
G01 X10.2249 Y-18.3999
G01 X10.2304 Y-18.4105
G01 X10.2422 Y-18.4313
G01 X10.2851 Y-18.5029
G01 X10.2914 Y-18.5130
G01 X10.3047 Y-18.5329
G01 X10.3614 Y-18.6096
G01 X10.3761 Y-18.6285
G01 X10.3917 Y-18.6466
G01 X10.4477 Y-18.7084
G01 X10.4642 Y-18.7258
G01 X10.4816 Y-18.7423
G01 X10.5434 Y-18.7983
G01 X10.5523 Y-18.8062
G01 X10.5708 Y-18.8214
G01 X10.6474 Y-18.8783
G01 X10.6669 Y-18.8921
G01 X10.6871 Y-18.9049
G01 X10.7587 Y-18.9478
G01 X10.7795 Y-18.9596
G01 X10.8009 Y-18.9703
G01 X10.8763 Y-19.0060
G01 X10.8982 Y-19.0157
G01 X10.9205 Y-19.0243
G01 X10.9990 Y-19.0524
G01 X11.0217 Y-19.0599
G01 X11.0448 Y-19.0663
G01 X11.1257 Y-19.0866
G01 X11.1491 Y-19.0918
G01 X11.1726 Y-19.0959
G01 X11.2552 Y-19.1081
G01 X11.2789 Y-19.1111
G01 X11.2908 Y-19.1121
G01 X11.3861 Y-19.1169
G01 X11.4100 Y-19.1175
G01 X11.4339 Y-19.1169
G01 X11.5172 Y-19.1128
G01 X11.5411 Y-19.1111
G01 X11.5648 Y-19.1081
G01 X11.6474 Y-19.0959
G01 X11.6709 Y-19.0918
G01 X11.6943 Y-19.0866
G01 X11.7752 Y-19.0663
G01 X11.7983 Y-19.0599
G01 X11.8210 Y-19.0524
G01 X11.8995 Y-19.0243
G01 X11.9218 Y-19.0157
G01 X11.9437 Y-19.0060
G01 X12.0191 Y-18.9703
G01 X12.0299 Y-18.9651
G01 X12.0510 Y-18.9538
G01 X12.1329 Y-18.9049
G01 X12.1531 Y-18.8921
G01 X12.1726 Y-18.8783
G01 X12.2396 Y-18.8286
G01 X12.2585 Y-18.8139
G01 X12.2766 Y-18.7983
G01 X12.3384 Y-18.7423
G01 X12.3558 Y-18.7258
G01 X12.3641 Y-18.7172
G01 X12.4283 Y-18.6466
G01 X12.4439 Y-18.6285
G01 X12.4586 Y-18.6096
G01 X12.5153 Y-18.5329
G01 X12.5286 Y-18.5130
G01 X12.5349 Y-18.5029
G01 X12.5838 Y-18.4210
G01 X12.5951 Y-18.3999
G01 X12.6125 Y-18.3634
G01 X12.6125 Y-18.6300
G01 X12.6131 Y-18.6539
G01 X12.6148 Y-18.6778
G01 X12.6162 Y-18.6897
G01 X12.6178 Y-18.7015
G01 X12.6219 Y-18.7251
G01 X12.6271 Y-18.7485
G01 X12.6335 Y-18.7715
G01 X12.6410 Y-18.7942
G01 X12.6496 Y-18.8166
G01 X12.6593 Y-18.8384
G01 X12.6701 Y-18.8598
G01 X12.6819 Y-18.8806
G01 X12.6881 Y-18.8908
G01 X12.7014 Y-18.9107
G01 X12.7157 Y-18.9299
G01 X12.7309 Y-18.9484
G01 X12.7388 Y-18.9574
G01 X12.7553 Y-18.9747
G01 X12.7638 Y-18.9831
G01 X12.7816 Y-18.9991
G01 X12.8001 Y-19.0143
G01 X12.8096 Y-19.0216
G01 X12.8292 Y-19.0353
G01 X12.8494 Y-19.0481
G01 X12.8702 Y-19.0599
G01 X12.8808 Y-19.0654
G01 X12.9024 Y-19.0757
G01 X12.9246 Y-19.0848
G01 X12.9358 Y-19.0890
G01 X12.9585 Y-19.0965
G01 X12.9815 Y-19.1029
G01 X13.0049 Y-19.1081
G01 X13.0285 Y-19.1122
G01 X13.0403 Y-19.1138
G01 X13.0641 Y-19.1162
G00 Z1.0000
G00 X13.0426 Y-19.4079
G01 F60.00
G01 Z-0.0450
G01 F150.00
G01 X13.0809 Y-19.4098
G01 X13.1000 Y-19.4100
G01 X14.8000 Y-19.4100
G01 X14.8383 Y-19.4091
G01 X14.8574 Y-19.4079
G01 X14.8955 Y-19.4041
G01 X14.9334 Y-19.3985
G01 X14.9709 Y-19.3910
G01 X15.0080 Y-19.3817
G01 X15.0264 Y-19.3764
G01 X15.0447 Y-19.3706
G01 X15.0807 Y-19.3577
G01 X15.1161 Y-19.3431
G01 X15.1335 Y-19.3351
G01 X15.1677 Y-19.3179
G01 X15.2010 Y-19.2990
G01 X15.2333 Y-19.2785
G01 X15.2646 Y-19.2565
G01 X15.2799 Y-19.2449
G01 X15.3095 Y-19.2206
G01 X15.3378 Y-19.1949
G01 X15.3515 Y-19.1815
G01 X15.3649 Y-19.1678
G01 X15.3906 Y-19.1395
G01 X15.4149 Y-19.1099
G01 X15.4265 Y-19.0946
G01 X15.4377 Y-19.0791
G01 X15.4590 Y-19.0473
G01 X15.4787 Y-19.0145
G01 X15.4967 Y-18.9807
G01 X15.5131 Y-18.9461
G01 X15.5206 Y-18.9285
G01 X15.5344 Y-18.8928
G01 X15.5406 Y-18.8747
G01 X15.5464 Y-18.8564
G01 X15.5566 Y-18.8195
G01 X15.5650 Y-18.7822
G01 X15.5685 Y-18.7634
G01 X15.5741 Y-18.7255
G01 X15.5762 Y-18.7065
G01 X15.5791 Y-18.6683
G01 X15.5800 Y-18.6300
G01 X15.5800 Y-18.3605
G01 X17.8105 Y-16.1300
G01 X18.2800 Y-16.1300
G01 X18.3183 Y-16.1291
G01 X18.3673 Y-16.1267
G01 X18.4055 Y-16.1238
G01 X18.4245 Y-16.1217
G01 X18.5109 Y-16.1089
G01 X18.5484 Y-16.1014
G01 X18.6332 Y-16.0802
G01 X18.6698 Y-16.0691
G01 X18.6879 Y-16.0629
G01 X18.7521 Y-16.0397
G01 X18.7874 Y-16.0250
G01 X18.8492 Y-15.9961
G01 X18.8834 Y-15.9789
G01 X18.9167 Y-15.9600
G01 X18.9588 Y-15.9348
G01 X18.9751 Y-15.9247
G01 X19.0069 Y-15.9035
G01 X19.0618 Y-15.8630
G01 X19.0920 Y-15.8395
G01 X19.1210 Y-15.8144
G01 X19.1574 Y-15.7815
G01 X19.1851 Y-15.7551
G01 X19.1985 Y-15.7414
G01 X19.2444 Y-15.6910
G01 X19.2695 Y-15.6620
G01 X19.2930 Y-15.6318
G01 X19.3222 Y-15.5924
G01 X19.3335 Y-15.5769
G01 X19.3547 Y-15.5451
G01 X19.3900 Y-15.4867
G01 X19.4089 Y-15.4534
G01 X19.4261 Y-15.4192
G01 X19.4550 Y-15.3574
G01 X19.4626 Y-15.3398
G01 X19.4763 Y-15.3041
G01 X19.4991 Y-15.2398
G01 X19.5102 Y-15.2032
G01 X19.5270 Y-15.1371
G01 X19.5354 Y-15.0997
G01 X19.5420 Y-15.0620
G01 X19.5491 Y-15.0135
G01 X19.5538 Y-14.9755
G01 X19.5567 Y-14.9373
G01 X19.5598 Y-14.8691
G01 X19.5600 Y-13.8500
G01 X19.5591 Y-13.8117
G01 X19.5567 Y-13.7627
G01 X19.5538 Y-13.7245
G01 X19.5491 Y-13.6865
G01 X19.5420 Y-13.6380
G01 X19.5354 Y-13.6003
G01 X19.5270 Y-13.5629
G01 X19.5151 Y-13.5153
G01 X19.5049 Y-13.4784
G01 X19.4929 Y-13.4421
G01 X19.4763 Y-13.3959
G01 X19.4626 Y-13.3602
G01 X19.4471 Y-13.3252
G01 X19.4261 Y-13.2808
G01 X19.4089 Y-13.2466
G01 X19.3900 Y-13.2133
G01 X19.3648 Y-13.1712
G01 X19.3443 Y-13.1389
G01 X19.3222 Y-13.1076
G01 X19.2930 Y-13.0682
G01 X19.2695 Y-13.0380
G01 X19.2444 Y-13.0090
G01 X19.2115 Y-12.9726
G01 X19.1851 Y-12.9449
G01 X19.1714 Y-12.9315
G01 X19.1210 Y-12.8856
G01 X19.0920 Y-12.8605
G01 X19.0618 Y-12.8370
G01 X19.0224 Y-12.8078
G01 X18.9911 Y-12.7857
G01 X18.9588 Y-12.7652
G01 X18.9002 Y-12.7304
G01 X18.8664 Y-12.7123
G01 X18.8048 Y-12.6829
G01 X18.7698 Y-12.6674
G01 X18.7341 Y-12.6537
G01 X18.6698 Y-12.6309
G01 X18.6332 Y-12.6198
G01 X18.5671 Y-12.6030
G01 X18.5297 Y-12.5946
G01 X18.4920 Y-12.5880
G01 X18.4435 Y-12.5809
G01 X18.4055 Y-12.5762
G01 X18.3673 Y-12.5733
G01 X18.3183 Y-12.5709
G01 X18.2800 Y-12.5700
G01 X17.2800 Y-12.5700
G01 X17.2417 Y-12.5709
G01 X17.1736 Y-12.5745
G01 X17.1355 Y-12.5783
G01 X17.0491 Y-12.5911
G01 X17.0116 Y-12.5986
G01 X16.9268 Y-12.6198
G01 X16.8902 Y-12.6309
G01 X16.8079 Y-12.6603
G01 X16.7726 Y-12.6750
G01 X16.6936 Y-12.7123
G01 X16.6598 Y-12.7304
G01 X16.6012 Y-12.7652
G01 X16.5689 Y-12.7857
G01 X16.5376 Y-12.8078
G01 X16.4829 Y-12.8486
G01 X16.4533 Y-12.8729
G01 X16.3886 Y-12.9315
G01 X16.3615 Y-12.9586
G01 X16.3156 Y-13.0090
G01 X16.2905 Y-13.0380
G01 X16.2670 Y-13.0682
G01 X16.2378 Y-13.1076
G01 X16.2157 Y-13.1389
G01 X16.1952 Y-13.1712
G01 X16.1700 Y-13.2133
G01 X16.1511 Y-13.2466
G01 X16.1339 Y-13.2808
G01 X16.1050 Y-13.3426
G01 X16.0903 Y-13.3779
G01 X16.0671 Y-13.4421
G01 X16.0551 Y-13.4784
G01 X16.0449 Y-13.5153
G01 X16.0286 Y-13.5816
G01 X16.0211 Y-13.6191
G01 X16.0109 Y-13.6865
G01 X16.0062 Y-13.7245
G01 X16.0033 Y-13.7627
G01 X16.0009 Y-13.8117
G01 X16.0000 Y-13.8500
G01 X16.0000 Y-14.3195
G01 X14.1695 Y-16.1500
G01 X13.1000 Y-16.1500
G01 X13.0617 Y-16.1509
G01 X13.0426 Y-16.1521
G01 X13.0235 Y-16.1538
G01 X12.9856 Y-16.1584
G01 X12.9478 Y-16.1650
G01 X12.9105 Y-16.1734
G01 X12.8920 Y-16.1783
G01 X12.8553 Y-16.1894
G01 X12.8372 Y-16.1956
G01 X12.8015 Y-16.2094
G01 X12.7665 Y-16.2249
G01 X12.7323 Y-16.2421
G01 X12.7155 Y-16.2513
G01 X12.6902 Y-16.2664
G01 X12.6903 Y-16.1703
G01 X12.7305 Y-16.1300
G01 X13.2191 Y-16.1298
G01 X13.2873 Y-16.1267
G01 X13.3255 Y-16.1238
G01 X13.3635 Y-16.1191
G01 X13.4120 Y-16.1120
G01 X13.4497 Y-16.1054
G01 X13.4871 Y-16.0970
G01 X13.5532 Y-16.0802
G01 X13.5898 Y-16.0691
G01 X13.6079 Y-16.0629
G01 X13.6721 Y-16.0397
G01 X13.7074 Y-16.0250
G01 X13.7864 Y-15.9877
G01 X13.8202 Y-15.9696
G01 X13.8367 Y-15.9600
G01 X13.8951 Y-15.9247
G01 X13.9269 Y-15.9035
G01 X13.9971 Y-15.8514
G01 X14.0267 Y-15.8271
G01 X14.0774 Y-15.7815
G01 X14.1051 Y-15.7551
G01 X14.1315 Y-15.7274
G01 X14.1644 Y-15.6910
G01 X14.1895 Y-15.6620
G01 X14.2130 Y-15.6318
G01 X14.2422 Y-15.5924
G01 X14.2643 Y-15.5611
G01 X14.2848 Y-15.5288
G01 X14.3100 Y-15.4867
G01 X14.3289 Y-15.4534
G01 X14.3461 Y-15.4192
G01 X14.3671 Y-15.3748
G01 X14.3826 Y-15.3398
G01 X14.3963 Y-15.3041
G01 X14.4191 Y-15.2398
G01 X14.4249 Y-15.2216
G01 X14.4351 Y-15.1847
G01 X14.4514 Y-15.1184
G01 X14.4589 Y-15.0809
G01 X14.4691 Y-15.0135
G01 X14.4738 Y-14.9755
G01 X14.4767 Y-14.9373
G01 X14.4798 Y-14.8691
G01 X14.4798 Y-13.8309
G01 X14.4755 Y-13.7436
G01 X14.4717 Y-13.7055
G01 X14.4589 Y-13.6191
G01 X14.4514 Y-13.5816
G01 X14.4302 Y-13.4968
G01 X14.4191 Y-13.4602
G01 X14.3897 Y-13.3779
G01 X14.3750 Y-13.3426
G01 X14.3377 Y-13.2636
G01 X14.3196 Y-13.2298
G01 X14.2747 Y-13.1549
G01 X14.2535 Y-13.1231
G01 X14.2014 Y-13.0529
G01 X14.1771 Y-13.0233
G01 X14.1185 Y-12.9586
G01 X14.0914 Y-12.9315
G01 X14.0267 Y-12.8729
G01 X13.9971 Y-12.8486
G01 X13.9269 Y-12.7965
G01 X13.9111 Y-12.7857
G01 X13.8788 Y-12.7652
G01 X13.8202 Y-12.7304
G01 X13.7864 Y-12.7123
G01 X13.7692 Y-12.7039
G01 X13.7248 Y-12.6829
G01 X13.6898 Y-12.6674
G01 X13.6541 Y-12.6537
G01 X13.6079 Y-12.6371
G01 X13.5716 Y-12.6251
G01 X13.5532 Y-12.6198
G01 X13.4684 Y-12.5986
G01 X13.4309 Y-12.5911
G01 X13.3445 Y-12.5783
G01 X13.3064 Y-12.5745
G01 X13.2873 Y-12.5733
G01 X13.2383 Y-12.5709
G01 X13.2000 Y-12.5700
G01 X12.1809 Y-12.5702
G01 X12.1127 Y-12.5733
G01 X12.0745 Y-12.5762
G01 X12.0365 Y-12.5809
G01 X11.9691 Y-12.5911
G01 X11.9503 Y-12.5946
G01 X11.9129 Y-12.6030
G01 X11.8468 Y-12.6198
G01 X11.8102 Y-12.6309
G01 X11.7459 Y-12.6537
G01 X11.7102 Y-12.6674
G01 X11.6752 Y-12.6829
G01 X11.6136 Y-12.7123
G01 X11.5798 Y-12.7304
G01 X11.5633 Y-12.7400
G01 X11.5049 Y-12.7753
G01 X11.4731 Y-12.7965
G01 X11.4182 Y-12.8370
G01 X11.3880 Y-12.8605
G01 X11.3590 Y-12.8856
G01 X11.3086 Y-12.9315
G01 X11.2815 Y-12.9586
G01 X11.2685 Y-12.9726
G01 X11.2229 Y-13.0233
G01 X11.1986 Y-13.0529
G01 X11.1578 Y-13.1076
G01 X11.1357 Y-13.1389
G01 X11.1152 Y-13.1712
G01 X11.0804 Y-13.2298
G01 X11.0623 Y-13.2636
G01 X11.0329 Y-13.3252
G01 X11.0174 Y-13.3602
G01 X11.0037 Y-13.3959
G01 X10.9871 Y-13.4421
G01 X10.9751 Y-13.4784
G01 X10.9649 Y-13.5153
G01 X10.9486 Y-13.5816
G01 X10.9411 Y-13.6191
G01 X10.9380 Y-13.6380
G01 X10.9309 Y-13.6865
G01 X10.9262 Y-13.7245
G01 X10.9233 Y-13.7627
G01 X10.9209 Y-13.8117
G01 X10.9200 Y-13.8500
G01 X10.9200 Y-14.3195
G01 X10.4914 Y-14.7484
G01 X10.4454 Y-14.7988
G01 X10.4204 Y-14.8278
G01 X10.3968 Y-14.8580
G01 X10.3563 Y-14.9129
G01 X10.3455 Y-14.9287
G01 X10.3250 Y-14.9611
G01 X10.2998 Y-15.0032
G01 X10.2809 Y-15.0365
G01 X10.2637 Y-15.0707
G01 X10.2427 Y-15.1151
G01 X10.2272 Y-15.1501
G01 X10.2201 Y-15.1678
G01 X10.1907 Y-15.2501
G01 X10.1795 Y-15.2867
G01 X10.1583 Y-15.3715
G01 X10.1508 Y-15.4091
G01 X10.1461 Y-15.4395
G01 X10.1441 Y-15.4145
G01 X10.1394 Y-15.3765
G01 X10.1322 Y-15.3280
G01 X10.1257 Y-15.2902
G01 X10.1173 Y-15.2529
G01 X10.1053 Y-15.2053
G01 X10.1005 Y-15.1867
G01 X10.0893 Y-15.1501
G01 X10.0599 Y-15.0678
G01 X10.0528 Y-15.0501
G01 X10.0373 Y-15.0151
G01 X10.0163 Y-14.9707
G01 X9.9991 Y-14.9365
G01 X9.9802 Y-14.9032
G01 X9.9550 Y-14.8611
G01 X9.9449 Y-14.8448
G01 X9.9237 Y-14.8129
G01 X9.8716 Y-14.7428
G01 X9.8473 Y-14.7132
G01 X9.8017 Y-14.6625
G01 X9.7753 Y-14.6347
G01 X9.4600 Y-14.3195
G01 X9.4600 Y-13.8500
G01 X9.4591 Y-13.8117
G01 X9.4555 Y-13.7436
G01 X9.4517 Y-13.7055
G01 X9.4491 Y-13.6865
G01 X9.4420 Y-13.6380
G01 X9.4354 Y-13.6003
G01 X9.4270 Y-13.5629
