(G-CODE GENERATED BY FLATCAM v8.994 - www.flatcam.org - Version Date: 2020/11/7)

(Name: breadboard_buttons-PTH.drl_cnc)
(Type: G-code from Geometry)
(Units: MM)

(Created on Sunday, 14 August 2022 at 14:19)

(This preprocessor is the default preprocessor used by FlatCAM.)
(It is made to work with MACH3 compatible motion controllers.)


(TOOLS DIAMETER: )
(Tool: 1 -> Dia: 1.0007599999999999)

(FEEDRATE Z: )
(Tool: 1 -> Feedrate: 300)

(FEEDRATE RAPIDS: )
(Tool: 1 -> Feedrate Rapids: 1500)

(Z_CUT: )
(Tool: 1 -> Z_Cut: -1.7)

(Tools Offset: )
(Tool: 1 -> Offset Z: 0.0)

(Z_MOVE: )
(Tool: 1 -> Z_Move: 2)

(Z Toolchange: 10.0 mm)
(X,Y Toolchange: 0.0000, 0.0000 mm)
(Z Start: None mm)
(Z End: 10.0 mm)
(X,Y End: 0.0000, 0.0000 mm)
(Steps per circle: 64)
(Preprocessor Excellon: mattwach)

(X range:    5.8293 ...   14.4704  mm)
(Y range:  -18.2804 ...   -2.0396  mm)

(Spindle Speed: 10000 RPM)
G21
G90
G94

G01 F300.00
(mattwach: Tool change disabled)
G01 F300.00
M03 S10000
G00 X6.3297 Y-17.7800
G01 Z-1.7000
G01 Z0
G00 Z2.0000
G00 X8.8697 Y-17.7800
G01 Z-1.7000
G01 Z0
G00 Z2.0000
G00 X11.4097 Y-17.7800
G01 Z-1.7000
G01 Z0
G00 Z2.0000
G00 X13.9497 Y-17.7800
G01 Z-1.7000
G01 Z0
G00 Z2.0000
G00 X13.9700 Y-2.5400
G01 Z-1.7000
G01 Z0
G00 Z2.0000
G00 X11.4300 Y-2.5400
G01 Z-1.7000
G01 Z0
G00 Z2.0000
G00 X8.8900 Y-2.5400
G01 Z-1.7000
G01 Z0
G00 Z2.0000
G00 X6.3500 Y-2.5400
G01 Z-1.7000
G01 Z0
G00 Z2.0000
M05
G00 Z10.00
G00 X0.0 Y0.0


