(G-CODE GENERATED BY FLATCAM v8.994 - www.flatcam.org - Version Date: 2020/11/7)

(Name: breadboard_buttons-Edge_Cuts.gbr_cutout_cnc)
(Type: G-code from Geometry)
(Units: MM)

(Created on Sunday, 14 August 2022 at 14:13)

(This preprocessor is the default preprocessor used by FlatCAM.)
(It is made to work with MACH3 compatible motion controllers.)

(TOOL DIAMETER: 2.0 mm)
(Feedrate_XY: 120.0 mm/min)
(Feedrate_Z: 60.0 mm/min)
(Feedrate rapids 1500.0 mm/min)

(Z_Cut: -1.7 mm)
(DepthPerCut: 0.6 mm <=>3 passes)
(Z_Move: 2.0 mm)
(Z Start: None mm)
(Z End: 10.0 mm)
(X,Y End: 0.0000, 0.0000 mm)
(Steps per circle: 64)
(Preprocessor Geometry: mattwach)

(X range:   -1.1500 ...   21.4700  mm)
(Y range:  -21.4700 ...    1.1500  mm)

(Spindle Speed: 10000.0 RPM)
G21
G90
G94

G01 F120.00
(mattwach: Tool change disabled)
M03 S10000.0
G01 F120.00
G00 X-1.1487 Y-20.3740
G01 F60.00
G01 Z-0.6000
G01 F120.00
G01 X-1.1500 Y-20.3200
G01 X-1.1500 Y-0.0000
G01 X-1.1485 Y0.0589
G01 X-1.1379 Y0.1663
G01 X-1.1161 Y0.2770
G01 X-1.0836 Y0.3851
G01 X-1.0406 Y0.4895
G01 X-0.9876 Y0.5891
G01 X-0.9251 Y0.6831
G01 X-0.8537 Y0.7705
G01 X-0.7741 Y0.8504
G01 X-0.6870 Y0.9222
G01 X-0.5933 Y0.9851
G01 X-0.4939 Y1.0385
G01 X-0.3897 Y1.0819
G01 X-0.2818 Y1.1149
G01 X-0.1712 Y1.1372
G01 X-0.0589 Y1.1485
G01 X0.0000 Y1.1500
G01 X20.3200 Y1.1500
G01 X20.3789 Y1.1485
G01 X20.4863 Y1.1379
G01 X20.5970 Y1.1161
G01 X20.7051 Y1.0836
G01 X20.8095 Y1.0406
G01 X20.9091 Y0.9876
G01 X21.0031 Y0.9251
G01 X21.0905 Y0.8537
G01 X21.1704 Y0.7741
G01 X21.2422 Y0.6870
G01 X21.3051 Y0.5933
G01 X21.3585 Y0.4939
G01 X21.4019 Y0.3897
G01 X21.4349 Y0.2818
G01 X21.4572 Y0.1712
G01 X21.4685 Y0.0589
G01 X21.4700 Y-0.0000
G01 X21.4700 Y-20.3200
G01 X21.4685 Y-20.3789
G01 X21.4579 Y-20.4863
G01 X21.4361 Y-20.5970
G01 X21.4036 Y-20.7051
G01 X21.3606 Y-20.8095
G01 X21.3076 Y-20.9091
G01 X21.2451 Y-21.0031
G01 X21.1737 Y-21.0905
G01 X21.0941 Y-21.1704
G01 X21.0070 Y-21.2422
G01 X20.9133 Y-21.3051
G01 X20.8139 Y-21.3585
G01 X20.7097 Y-21.4019
G01 X20.6018 Y-21.4349
G01 X20.4912 Y-21.4572
G01 X20.3789 Y-21.4685
G01 X20.3200 Y-21.4700
G01 X0.0000 Y-21.4700
G01 X-0.0540 Y-21.4687
G01 X-0.1663 Y-21.4579
G01 X-0.2770 Y-21.4361
G01 X-0.3851 Y-21.4036
G01 X-0.4895 Y-21.3606
G01 X-0.5891 Y-21.3076
G01 X-0.6831 Y-21.2451
G01 X-0.7705 Y-21.1737
G01 X-0.8504 Y-21.0941
G01 X-0.9222 Y-21.0070
G01 X-0.9851 Y-20.9133
G01 X-1.0385 Y-20.8139
G01 X-1.0819 Y-20.7097
G01 X-1.1149 Y-20.6018
G01 X-1.1372 Y-20.4912
G01 X-1.1487 Y-20.3740
G00 X-1.1487 Y-20.3740
G01 F60.00
G01 Z-1.2000
G01 F120.00
G01 X-1.1372 Y-20.4912
G01 X-1.1149 Y-20.6018
G01 X-1.0819 Y-20.7097
G01 X-1.0385 Y-20.8139
G01 X-0.9851 Y-20.9133
G01 X-0.9222 Y-21.0070
G01 X-0.8504 Y-21.0941
G01 X-0.7705 Y-21.1737
G01 X-0.6831 Y-21.2451
G01 X-0.5891 Y-21.3076
G01 X-0.4895 Y-21.3606
G01 X-0.3851 Y-21.4036
G01 X-0.2770 Y-21.4361
G01 X-0.1663 Y-21.4579
G01 X-0.0540 Y-21.4687
G01 X0.0000 Y-21.4700
G01 X20.3200 Y-21.4700
G01 X20.3789 Y-21.4685
G01 X20.4912 Y-21.4572
G01 X20.6018 Y-21.4349
G01 X20.7097 Y-21.4019
G01 X20.8139 Y-21.3585
G01 X20.9133 Y-21.3051
G01 X21.0070 Y-21.2422
G01 X21.0941 Y-21.1704
G01 X21.1737 Y-21.0905
G01 X21.2451 Y-21.0031
G01 X21.3076 Y-20.9091
G01 X21.3606 Y-20.8095
G01 X21.4036 Y-20.7051
G01 X21.4361 Y-20.5970
G01 X21.4579 Y-20.4863
G01 X21.4685 Y-20.3789
G01 X21.4700 Y-20.3200
G01 X21.4700 Y-0.0000
G01 X21.4685 Y0.0589
G01 X21.4572 Y0.1712
G01 X21.4349 Y0.2818
G01 X21.4019 Y0.3897
G01 X21.3585 Y0.4939
G01 X21.3051 Y0.5933
G01 X21.2422 Y0.6870
G01 X21.1704 Y0.7741
G01 X21.0905 Y0.8537
G01 X21.0031 Y0.9251
G01 X20.9091 Y0.9876
G01 X20.8095 Y1.0406
G01 X20.7051 Y1.0836
G01 X20.5970 Y1.1161
G01 X20.4863 Y1.1379
G01 X20.3789 Y1.1485
G01 X20.3200 Y1.1500
G01 X0.0000 Y1.1500
G01 X-0.0589 Y1.1485
G01 X-0.1712 Y1.1372
G01 X-0.2818 Y1.1149
G01 X-0.3897 Y1.0819
G01 X-0.4939 Y1.0385
G01 X-0.5933 Y0.9851
G01 X-0.6870 Y0.9222
G01 X-0.7741 Y0.8504
G01 X-0.8537 Y0.7705
G01 X-0.9251 Y0.6831
G01 X-0.9876 Y0.5891
G01 X-1.0406 Y0.4895
G01 X-1.0836 Y0.3851
G01 X-1.1161 Y0.2770
G01 X-1.1379 Y0.1663
G01 X-1.1485 Y0.0589
G01 X-1.1500 Y-0.0000
G01 X-1.1500 Y-20.3200
G01 X-1.1487 Y-20.3740
G00 X-1.1487 Y-20.3740
G01 F60.00
G01 Z-1.7000
G01 F120.00
G01 X-1.1500 Y-20.3200
G01 X-1.1500 Y-0.0000
G01 X-1.1485 Y0.0589
G01 X-1.1379 Y0.1663
G01 X-1.1161 Y0.2770
G01 X-1.0836 Y0.3851
G01 X-1.0406 Y0.4895
G01 X-0.9876 Y0.5891
G01 X-0.9251 Y0.6831
G01 X-0.8537 Y0.7705
G01 X-0.7741 Y0.8504
G01 X-0.6870 Y0.9222
G01 X-0.5933 Y0.9851
G01 X-0.4939 Y1.0385
G01 X-0.3897 Y1.0819
G01 X-0.2818 Y1.1149
G01 X-0.1712 Y1.1372
G01 X-0.0589 Y1.1485
G01 X0.0000 Y1.1500
G01 X20.3200 Y1.1500
G01 X20.3789 Y1.1485
G01 X20.4863 Y1.1379
G01 X20.5970 Y1.1161
G01 X20.7051 Y1.0836
G01 X20.8095 Y1.0406
G01 X20.9091 Y0.9876
G01 X21.0031 Y0.9251
G01 X21.0905 Y0.8537
G01 X21.1704 Y0.7741
G01 X21.2422 Y0.6870
G01 X21.3051 Y0.5933
G01 X21.3585 Y0.4939
G01 X21.4019 Y0.3897
G01 X21.4349 Y0.2818
G01 X21.4572 Y0.1712
G01 X21.4685 Y0.0589
G01 X21.4700 Y-0.0000
G01 X21.4700 Y-20.3200
G01 X21.4685 Y-20.3789
G01 X21.4579 Y-20.4863
G01 X21.4361 Y-20.5970
G01 X21.4036 Y-20.7051
G01 X21.3606 Y-20.8095
G01 X21.3076 Y-20.9091
G01 X21.2451 Y-21.0031
G01 X21.1737 Y-21.0905
G01 X21.0941 Y-21.1704
G01 X21.0070 Y-21.2422
G01 X20.9133 Y-21.3051
G01 X20.8139 Y-21.3585
G01 X20.7097 Y-21.4019
G01 X20.6018 Y-21.4349
G01 X20.4912 Y-21.4572
G01 X20.3789 Y-21.4685
G01 X20.3200 Y-21.4700
G01 X0.0000 Y-21.4700
G01 X-0.0540 Y-21.4687
G01 X-0.1663 Y-21.4579
G01 X-0.2770 Y-21.4361
G01 X-0.3851 Y-21.4036
G01 X-0.4895 Y-21.3606
G01 X-0.5891 Y-21.3076
G01 X-0.6831 Y-21.2451
G01 X-0.7705 Y-21.1737
G01 X-0.8504 Y-21.0941
G01 X-0.9222 Y-21.0070
G01 X-0.9851 Y-20.9133
G01 X-1.0385 Y-20.8139
G01 X-1.0819 Y-20.7097
G01 X-1.1149 Y-20.6018
G01 X-1.1372 Y-20.4912
G01 X-1.1487 Y-20.3740
G00 Z2.0000
M05
G00 Z2.0000
G00 Z10.00
G00 X0.0 Y0.0


